( PCB Contour )
( Generated by Carbide Copper )
( Material Size )
( X= 152.400, Y= 101.600, Z= 1.580 )
()
G17
G21
G54
G90
G00  X16.466 Y63.826
G01 F750 Z0
G01 F400 Z-0.100
G01 F400 X16.399 Y63.812
G01 F400 X16.336 Y63.784
G01 F400 X16.283 Y63.746
G01 F400 X9.274 Y56.736
G01 F400 X9.235 Y56.693
G01 F400 X9.200 Y56.633
G01 F400 X9.179 Y56.568
G01 F400 X9.173 Y56.507
G01 F400 X9.173 Y18.994
G01 F400 X9.179 Y18.932
G01 F400 X9.200 Y18.867
G01 F400 X9.235 Y18.807
G01 F400 X9.280 Y18.756
G01 F400 X9.336 Y18.716
G01 F400 X9.399 Y18.688
G01 F400 X9.466 Y18.674
G01 F400 X35.534 Y18.674
G01 F400 X35.601 Y18.688
G01 F400 X35.664 Y18.716
G01 F400 X35.717 Y18.754
G01 F400 X40.013 Y23.051
G01 F400 X40.178 Y23.016
G01 F400 X40.362 Y23.016
G01 F400 X40.542 Y23.054
G01 F400 X40.709 Y23.129
G01 F400 X40.858 Y23.237
G01 F400 X40.981 Y23.373
G01 F400 X41.073 Y23.533
G01 F400 X41.130 Y23.707
G01 F400 X41.149 Y23.890
G01 F400 X41.130 Y24.073
G01 F400 X41.073 Y24.247
G01 F400 X40.981 Y24.407
G01 F400 X40.858 Y24.543
G01 F400 X40.709 Y24.651
G01 F400 X40.542 Y24.726
G01 F400 X40.362 Y24.764
G01 F400 X40.178 Y24.764
G01 F400 X39.998 Y24.726
G01 F400 X39.831 Y24.651
G01 F400 X39.682 Y24.543
G01 F400 X39.559 Y24.407
G01 F400 X39.467 Y24.247
G01 F400 X39.410 Y24.073
G01 F400 X39.391 Y23.890
G01 F400 X39.410 Y23.707
G01 F400 X39.467 Y23.533
G01 F400 X39.505 Y23.467
G01 F400 X35.364 Y19.326
G01 F400 X9.827 Y19.326
G01 F400 X9.827 Y56.365
G01 F400 X16.636 Y63.174
G01 F400 X77.173 Y63.174
G01 F400 X77.173 Y60.420
G01 F400 X77.109 Y60.407
G01 F400 X76.843 Y60.288
G01 F400 X76.607 Y60.117
G01 F400 X76.412 Y59.900
G01 F400 X76.266 Y59.647
G01 F400 X76.176 Y59.370
G01 F400 X76.145 Y59.080
G01 F400 X76.176 Y58.790
G01 F400 X76.266 Y58.513
G01 F400 X76.412 Y58.260
G01 F400 X76.607 Y58.044
G01 F400 X76.843 Y57.872
G01 F400 X77.109 Y57.754
G01 F400 X77.394 Y57.693
G01 F400 X77.686 Y57.693
G01 F400 X77.971 Y57.754
G01 F400 X78.237 Y57.872
G01 F400 X78.473 Y58.044
G01 F400 X78.668 Y58.260
G01 F400 X78.814 Y58.513
G01 F400 X78.904 Y58.790
G01 F400 X78.935 Y59.080
G01 F400 X78.904 Y59.370
G01 F400 X78.814 Y59.647
G01 F400 X78.668 Y59.900
G01 F400 X78.473 Y60.117
G01 F400 X78.237 Y60.288
G01 F400 X77.971 Y60.407
G01 F400 X77.827 Y60.437
G01 F400 X77.827 Y63.507
G01 F400 X77.821 Y63.568
G01 F400 X77.800 Y63.633
G01 F400 X77.765 Y63.693
G01 F400 X77.720 Y63.744
G01 F400 X77.664 Y63.784
G01 F400 X77.601 Y63.812
G01 F400 X77.534 Y63.826
G01 F400 X16.466 Y63.826
G00 Z3.000
G00  X16.966 Y62.826
G01 F750 Z0
G01 F400 Z-0.100
G01 F400 X16.899 Y62.812
G01 F400 X16.836 Y62.784
G01 F400 X16.783 Y62.746
G01 F400 X10.274 Y56.236
G01 F400 X10.235 Y56.193
G01 F400 X10.200 Y56.133
G01 F400 X10.179 Y56.068
G01 F400 X10.173 Y56.007
G01 F400 X10.173 Y19.994
G01 F400 X10.179 Y19.932
G01 F400 X10.200 Y19.867
G01 F400 X10.235 Y19.807
G01 F400 X10.280 Y19.756
G01 F400 X10.336 Y19.716
G01 F400 X10.399 Y19.688
G01 F400 X10.466 Y19.674
G01 F400 X34.034 Y19.674
G01 F400 X34.101 Y19.688
G01 F400 X34.164 Y19.716
G01 F400 X34.217 Y19.754
G01 F400 X37.506 Y23.044
G01 F400 X37.638 Y23.016
G01 F400 X37.822 Y23.016
G01 F400 X38.002 Y23.054
G01 F400 X38.169 Y23.129
G01 F400 X38.318 Y23.237
G01 F400 X38.441 Y23.373
G01 F400 X38.533 Y23.533
G01 F400 X38.590 Y23.707
G01 F400 X38.609 Y23.890
G01 F400 X38.590 Y24.073
G01 F400 X38.533 Y24.247
G01 F400 X38.441 Y24.407
G01 F400 X38.318 Y24.543
G01 F400 X38.169 Y24.651
G01 F400 X38.002 Y24.726
G01 F400 X37.822 Y24.764
G01 F400 X37.638 Y24.764
G01 F400 X37.458 Y24.726
G01 F400 X37.291 Y24.651
G01 F400 X37.142 Y24.543
G01 F400 X37.019 Y24.407
G01 F400 X36.927 Y24.247
G01 F400 X36.870 Y24.073
G01 F400 X36.851 Y23.890
G01 F400 X36.870 Y23.707
G01 F400 X36.927 Y23.533
G01 F400 X36.980 Y23.442
G01 F400 X33.864 Y20.326
G01 F400 X10.827 Y20.326
G01 F400 X10.827 Y55.865
G01 F400 X17.136 Y62.174
G01 F400 X59.173 Y62.174
G01 F400 X59.173 Y60.420
G01 F400 X59.109 Y60.407
G01 F400 X58.843 Y60.288
G01 F400 X58.607 Y60.117
G01 F400 X58.412 Y59.900
G01 F400 X58.266 Y59.647
G01 F400 X58.176 Y59.370
G01 F400 X58.145 Y59.080
G01 F400 X58.176 Y58.790
G01 F400 X58.266 Y58.513
G01 F400 X58.412 Y58.260
G01 F400 X58.607 Y58.044
G01 F400 X58.843 Y57.872
G01 F400 X59.109 Y57.754
G01 F400 X59.394 Y57.693
G01 F400 X59.686 Y57.693
G01 F400 X59.971 Y57.754
G01 F400 X60.237 Y57.872
G01 F400 X60.473 Y58.044
G01 F400 X60.668 Y58.260
G01 F400 X60.814 Y58.513
G01 F400 X60.904 Y58.790
G01 F400 X60.935 Y59.080
G01 F400 X60.904 Y59.370
G01 F400 X60.814 Y59.647
G01 F400 X60.668 Y59.900
G01 F400 X60.473 Y60.117
G01 F400 X60.237 Y60.288
G01 F400 X59.971 Y60.407
G01 F400 X59.827 Y60.437
G01 F400 X59.827 Y62.507
G01 F400 X59.821 Y62.568
G01 F400 X59.800 Y62.633
G01 F400 X59.765 Y62.693
G01 F400 X59.720 Y62.744
G01 F400 X59.664 Y62.784
G01 F400 X59.601 Y62.812
G01 F400 X59.534 Y62.826
G01 F400 X16.966 Y62.826
G00 Z3.000
G00  X17.466 Y61.826
G01 F750 Z0
G01 F400 Z-0.100
G01 F400 X17.399 Y61.812
G01 F400 X17.336 Y61.784
G01 F400 X17.283 Y61.746
G01 F400 X11.274 Y55.736
G01 F400 X11.235 Y55.693
G01 F400 X11.200 Y55.633
G01 F400 X11.179 Y55.568
G01 F400 X11.173 Y55.507
G01 F400 X11.173 Y20.994
G01 F400 X11.179 Y20.932
G01 F400 X11.200 Y20.867
G01 F400 X11.235 Y20.807
G01 F400 X11.280 Y20.756
G01 F400 X11.336 Y20.716
G01 F400 X11.399 Y20.688
G01 F400 X11.466 Y20.674
G01 F400 X27.534 Y20.674
G01 F400 X27.601 Y20.688
G01 F400 X27.664 Y20.716
G01 F400 X27.717 Y20.754
G01 F400 X29.985 Y23.023
G01 F400 X30.018 Y23.016
G01 F400 X30.202 Y23.016
G01 F400 X30.382 Y23.054
G01 F400 X30.549 Y23.129
G01 F400 X30.698 Y23.237
G01 F400 X30.821 Y23.373
G01 F400 X30.913 Y23.533
G01 F400 X30.970 Y23.707
G01 F400 X30.989 Y23.890
G01 F400 X30.970 Y24.073
G01 F400 X30.913 Y24.247
G01 F400 X30.821 Y24.407
G01 F400 X30.698 Y24.543
G01 F400 X30.549 Y24.651
G01 F400 X30.382 Y24.726
G01 F400 X30.202 Y24.764
G01 F400 X30.018 Y24.764
G01 F400 X29.838 Y24.726
G01 F400 X29.671 Y24.651
G01 F400 X29.522 Y24.543
G01 F400 X29.399 Y24.407
G01 F400 X29.307 Y24.247
G01 F400 X29.250 Y24.073
G01 F400 X29.231 Y23.890
G01 F400 X29.250 Y23.707
G01 F400 X29.307 Y23.533
G01 F400 X29.399 Y23.373
G01 F400 X29.405 Y23.367
G01 F400 X27.364 Y21.326
G01 F400 X11.827 Y21.326
G01 F400 X11.827 Y55.365
G01 F400 X17.636 Y61.174
G01 F400 X41.173 Y61.174
G01 F400 X41.173 Y60.420
G01 F400 X41.109 Y60.407
G01 F400 X40.843 Y60.288
G01 F400 X40.607 Y60.117
G01 F400 X40.412 Y59.900
G01 F400 X40.266 Y59.647
G01 F400 X40.176 Y59.370
G01 F400 X40.145 Y59.080
G01 F400 X40.176 Y58.790
G01 F400 X40.266 Y58.513
G01 F400 X40.412 Y58.260
G01 F400 X40.607 Y58.044
G01 F400 X40.843 Y57.872
G01 F400 X41.109 Y57.754
G01 F400 X41.394 Y57.693
G01 F400 X41.686 Y57.693
G01 F400 X41.971 Y57.754
G01 F400 X42.237 Y57.872
G01 F400 X42.473 Y58.044
G01 F400 X42.668 Y58.260
G01 F400 X42.814 Y58.513
G01 F400 X42.904 Y58.790
G01 F400 X42.935 Y59.080
G01 F400 X42.904 Y59.370
G01 F400 X42.814 Y59.647
G01 F400 X42.668 Y59.900
G01 F400 X42.473 Y60.117
G01 F400 X42.237 Y60.288
G01 F400 X41.971 Y60.407
G01 F400 X41.827 Y60.437
G01 F400 X41.827 Y61.507
G01 F400 X41.821 Y61.568
G01 F400 X41.800 Y61.633
G01 F400 X41.765 Y61.693
G01 F400 X41.720 Y61.744
G01 F400 X41.664 Y61.784
G01 F400 X41.601 Y61.812
G01 F400 X41.534 Y61.826
G01 F400 X17.466 Y61.826
G00 Z3.000
G00  X23.394 Y60.467
G01 F750 Z0
G01 F400 Z-0.100
G01 F400 X23.109 Y60.407
G01 F400 X22.843 Y60.288
G01 F400 X22.607 Y60.117
G01 F400 X22.412 Y59.900
G01 F400 X22.266 Y59.647
G01 F400 X22.176 Y59.370
G01 F400 X22.171 Y59.326
G01 F400 X16.466 Y59.326
G01 F400 X16.399 Y59.312
G01 F400 X16.336 Y59.284
G01 F400 X16.283 Y59.246
G01 F400 X12.274 Y55.236
G01 F400 X12.235 Y55.193
G01 F400 X12.200 Y55.133
G01 F400 X12.179 Y55.068
G01 F400 X12.173 Y55.007
G01 F400 X12.173 Y21.994
G01 F400 X12.179 Y21.932
G01 F400 X12.200 Y21.867
G01 F400 X12.235 Y21.807
G01 F400 X12.280 Y21.756
G01 F400 X12.336 Y21.716
G01 F400 X12.399 Y21.688
G01 F400 X12.466 Y21.674
G01 F400 X26.034 Y21.674
G01 F400 X26.101 Y21.688
G01 F400 X26.164 Y21.716
G01 F400 X26.217 Y21.754
G01 F400 X27.478 Y23.016
G01 F400 X27.662 Y23.016
G01 F400 X27.842 Y23.054
G01 F400 X28.009 Y23.129
G01 F400 X28.158 Y23.237
G01 F400 X28.281 Y23.373
G01 F400 X28.373 Y23.533
G01 F400 X28.430 Y23.707
G01 F400 X28.449 Y23.890
G01 F400 X28.430 Y24.073
G01 F400 X28.373 Y24.247
G01 F400 X28.281 Y24.407
G01 F400 X28.158 Y24.543
G01 F400 X28.009 Y24.651
G01 F400 X27.842 Y24.726
G01 F400 X27.662 Y24.764
G01 F400 X27.478 Y24.764
G01 F400 X27.298 Y24.726
G01 F400 X27.131 Y24.651
G01 F400 X26.982 Y24.543
G01 F400 X26.859 Y24.407
G01 F400 X26.767 Y24.247
G01 F400 X26.710 Y24.073
G01 F400 X26.691 Y23.890
G01 F400 X26.710 Y23.707
G01 F400 X26.767 Y23.533
G01 F400 X26.859 Y23.373
G01 F400 X26.884 Y23.346
G01 F400 X25.864 Y22.326
G01 F400 X12.827 Y22.326
G01 F400 X12.827 Y54.865
G01 F400 X16.636 Y58.674
G01 F400 X22.213 Y58.674
G01 F400 X22.266 Y58.513
G01 F400 X22.412 Y58.260
G01 F400 X22.607 Y58.044
G01 F400 X22.843 Y57.872
G01 F400 X23.109 Y57.754
G01 F400 X23.394 Y57.693
G01 F400 X23.686 Y57.693
G01 F400 X23.971 Y57.754
G01 F400 X24.237 Y57.872
G01 F400 X24.473 Y58.044
G01 F400 X24.668 Y58.260
G01 F400 X24.814 Y58.513
G01 F400 X24.904 Y58.790
G01 F400 X24.935 Y59.080
G01 F400 X24.904 Y59.370
G01 F400 X24.814 Y59.647
G01 F400 X24.668 Y59.900
G01 F400 X24.473 Y60.117
G01 F400 X24.237 Y60.288
G01 F400 X23.971 Y60.407
G01 F400 X23.686 Y60.467
G01 F400 X23.394 Y60.467
G00 Z3.000
G00  X17.044 Y57.927
G01 F750 Z0
G01 F400 Z-0.100
G01 F400 X16.759 Y57.867
G01 F400 X16.493 Y57.748
G01 F400 X16.257 Y57.577
G01 F400 X16.062 Y57.360
G01 F400 X15.916 Y57.107
G01 F400 X15.826 Y56.830
G01 F400 X15.825 Y56.826
G01 F400 X15.466 Y56.826
G01 F400 X15.399 Y56.812
G01 F400 X15.336 Y56.784
G01 F400 X15.283 Y56.746
G01 F400 X13.274 Y54.736
G01 F400 X13.235 Y54.693
G01 F400 X13.200 Y54.633
G01 F400 X13.179 Y54.568
G01 F400 X13.173 Y54.507
G01 F400 X13.173 Y51.994
G01 F400 X13.179 Y51.932
G01 F400 X13.200 Y51.867
G01 F400 X13.235 Y51.807
G01 F400 X13.274 Y51.764
G01 F400 X21.538 Y43.500
G01 F400 X17.815 Y39.777
G01 F400 X17.622 Y39.866
G01 F400 X17.336 Y39.927
G01 F400 X17.044 Y39.927
G01 F400 X16.759 Y39.867
G01 F400 X16.493 Y39.748
G01 F400 X16.257 Y39.577
G01 F400 X16.062 Y39.360
G01 F400 X15.916 Y39.107
G01 F400 X15.826 Y38.830
G01 F400 X15.795 Y38.540
G01 F400 X15.826 Y38.250
G01 F400 X15.916 Y37.973
G01 F400 X16.062 Y37.720
G01 F400 X16.257 Y37.504
G01 F400 X16.493 Y37.332
G01 F400 X16.759 Y37.214
G01 F400 X17.044 Y37.153
G01 F400 X17.336 Y37.153
G01 F400 X17.621 Y37.214
G01 F400 X17.887 Y37.332
G01 F400 X18.123 Y37.504
G01 F400 X18.318 Y37.720
G01 F400 X18.464 Y37.973
G01 F400 X18.554 Y38.250
G01 F400 X18.585 Y38.540
G01 F400 X18.554 Y38.830
G01 F400 X18.464 Y39.107
G01 F400 X18.320 Y39.357
G01 F400 X22.136 Y43.174
G01 F400 X34.673 Y43.174
G01 F400 X34.673 Y39.828
G01 F400 X34.493 Y39.748
G01 F400 X34.257 Y39.577
G01 F400 X34.062 Y39.360
G01 F400 X33.916 Y39.107
G01 F400 X33.826 Y38.830
G01 F400 X33.795 Y38.540
G01 F400 X33.826 Y38.250
G01 F400 X33.916 Y37.973
G01 F400 X34.062 Y37.720
G01 F400 X34.257 Y37.504
G01 F400 X34.493 Y37.332
G01 F400 X34.759 Y37.214
G01 F400 X35.044 Y37.153
G01 F400 X35.336 Y37.153
G01 F400 X35.621 Y37.214
G01 F400 X35.887 Y37.332
G01 F400 X36.123 Y37.504
G01 F400 X36.318 Y37.720
G01 F400 X36.464 Y37.973
G01 F400 X36.543 Y38.214
G01 F400 X37.021 Y38.214
G01 F400 X37.089 Y38.228
G01 F400 X37.151 Y38.256
G01 F400 X37.204 Y38.294
G01 F400 X37.803 Y38.893
G01 F400 X40.197 Y38.893
G01 F400 X40.796 Y38.294
G01 F400 X40.849 Y38.256
G01 F400 X40.912 Y38.228
G01 F400 X40.979 Y38.214
G01 F400 X51.838 Y38.214
G01 F400 X51.916 Y37.973
G01 F400 X52.062 Y37.720
G01 F400 X52.257 Y37.504
G01 F400 X52.493 Y37.332
G01 F400 X52.759 Y37.214
G01 F400 X53.044 Y37.153
G01 F400 X53.336 Y37.153
G01 F400 X53.621 Y37.214
G01 F400 X53.887 Y37.332
G01 F400 X54.123 Y37.504
G01 F400 X54.318 Y37.720
G01 F400 X54.464 Y37.973
G01 F400 X54.554 Y38.250
G01 F400 X54.585 Y38.540
G01 F400 X54.554 Y38.830
G01 F400 X54.464 Y39.107
G01 F400 X54.318 Y39.360
G01 F400 X54.123 Y39.577
G01 F400 X53.887 Y39.748
G01 F400 X53.827 Y39.775
G01 F400 X53.827 Y43.174
G01 F400 X77.864 Y43.174
G01 F400 X79.173 Y41.865
G01 F400 X79.173 Y39.326
G01 F400 X76.636 Y39.326
G01 F400 X76.217 Y39.746
G01 F400 X76.164 Y39.784
G01 F400 X76.101 Y39.812
G01 F400 X76.034 Y39.826
G01 F400 X73.966 Y39.826
G01 F400 X73.899 Y39.812
G01 F400 X73.836 Y39.784
G01 F400 X73.783 Y39.746
G01 F400 X73.364 Y39.326
G01 F400 X72.338 Y39.326
G01 F400 X72.318 Y39.360
G01 F400 X72.123 Y39.577
G01 F400 X71.887 Y39.748
G01 F400 X71.621 Y39.867
G01 F400 X71.336 Y39.927
G01 F400 X71.044 Y39.927
G01 F400 X70.759 Y39.867
G01 F400 X70.493 Y39.748
G01 F400 X70.257 Y39.577
G01 F400 X70.062 Y39.360
G01 F400 X69.916 Y39.107
G01 F400 X69.826 Y38.830
G01 F400 X69.825 Y38.826
G01 F400 X69.466 Y38.826
G01 F400 X69.399 Y38.812
G01 F400 X69.336 Y38.784
G01 F400 X69.283 Y38.746
G01 F400 X67.274 Y36.736
G01 F400 X67.235 Y36.693
G01 F400 X67.200 Y36.633
G01 F400 X67.179 Y36.568
G01 F400 X67.173 Y36.507
G01 F400 X67.173 Y10.326
G01 F400 X56.466 Y10.326
G01 F400 X56.399 Y10.312
G01 F400 X56.336 Y10.284
G01 F400 X56.283 Y10.246
G01 F400 X53.019 Y6.981
G01 F400 X52.880 Y6.984
G01 F400 X52.698 Y6.946
G01 F400 X52.531 Y6.871
G01 F400 X52.382 Y6.763
G01 F400 X52.259 Y6.627
G01 F400 X52.167 Y6.467
G01 F400 X52.110 Y6.293
G01 F400 X52.091 Y6.110
G01 F400 X52.110 Y5.927
G01 F400 X52.167 Y5.753
G01 F400 X52.259 Y5.594
G01 F400 X52.382 Y5.457
G01 F400 X52.531 Y5.349
G01 F400 X52.698 Y5.274
G01 F400 X52.878 Y5.236
G01 F400 X53.062 Y5.236
G01 F400 X53.242 Y5.274
G01 F400 X53.409 Y5.349
G01 F400 X53.558 Y5.457
G01 F400 X53.681 Y5.594
G01 F400 X53.773 Y5.753
G01 F400 X53.830 Y5.927
G01 F400 X53.849 Y6.110
G01 F400 X53.830 Y6.293
G01 F400 X53.773 Y6.467
G01 F400 X53.681 Y6.627
G01 F400 X53.645 Y6.666
G01 F400 X56.637 Y9.674
G01 F400 X67.534 Y9.674
G01 F400 X67.601 Y9.688
G01 F400 X67.664 Y9.716
G01 F400 X67.719 Y9.756
G01 F400 X67.765 Y9.807
G01 F400 X67.800 Y9.867
G01 F400 X67.821 Y9.932
G01 F400 X67.827 Y9.994
G01 F400 X67.827 Y36.365
G01 F400 X69.636 Y38.174
G01 F400 X69.854 Y38.174
G01 F400 X69.915 Y37.974
G01 F400 X70.062 Y37.720
G01 F400 X70.257 Y37.504
G01 F400 X70.493 Y37.332
G01 F400 X70.759 Y37.214
G01 F400 X71.044 Y37.153
G01 F400 X71.336 Y37.153
G01 F400 X71.621 Y37.214
G01 F400 X71.887 Y37.332
G01 F400 X72.123 Y37.504
G01 F400 X72.318 Y37.720
G01 F400 X72.464 Y37.973
G01 F400 X72.554 Y38.250
G01 F400 X72.585 Y38.540
G01 F400 X72.571 Y38.674
G01 F400 X73.534 Y38.674
G01 F400 X73.601 Y38.688
G01 F400 X73.664 Y38.716
G01 F400 X73.717 Y38.754
G01 F400 X74.136 Y39.174
G01 F400 X75.864 Y39.174
G01 F400 X76.283 Y38.754
G01 F400 X76.336 Y38.716
G01 F400 X76.399 Y38.688
G01 F400 X76.466 Y38.674
G01 F400 X79.534 Y38.674
G01 F400 X79.601 Y38.688
G01 F400 X79.664 Y38.716
G01 F400 X79.720 Y38.756
G01 F400 X79.765 Y38.807
G01 F400 X79.800 Y38.867
G01 F400 X79.821 Y38.932
G01 F400 X79.827 Y38.994
G01 F400 X79.827 Y42.007
G01 F400 X79.821 Y42.068
G01 F400 X79.800 Y42.133
G01 F400 X79.765 Y42.193
G01 F400 X79.726 Y42.236
G01 F400 X78.217 Y43.746
G01 F400 X78.164 Y43.784
G01 F400 X78.101 Y43.812
G01 F400 X78.034 Y43.826
G01 F400 X53.466 Y43.826
G01 F400 X53.399 Y43.812
G01 F400 X53.336 Y43.784
G01 F400 X53.281 Y43.744
G01 F400 X53.235 Y43.693
G01 F400 X53.200 Y43.633
G01 F400 X53.179 Y43.568
G01 F400 X53.173 Y43.507
G01 F400 X53.173 Y39.927
G01 F400 X53.044 Y39.927
G01 F400 X52.759 Y39.867
G01 F400 X52.493 Y39.748
G01 F400 X52.257 Y39.577
G01 F400 X52.062 Y39.360
G01 F400 X51.916 Y39.107
G01 F400 X51.838 Y38.866
G01 F400 X41.149 Y38.866
G01 F400 X40.550 Y39.465
G01 F400 X40.498 Y39.503
G01 F400 X40.435 Y39.531
G01 F400 X40.368 Y39.546
G01 F400 X37.632 Y39.546
G01 F400 X37.565 Y39.531
G01 F400 X37.503 Y39.503
G01 F400 X37.450 Y39.465
G01 F400 X36.851 Y38.866
G01 F400 X36.543 Y38.866
G01 F400 X36.464 Y39.107
G01 F400 X36.318 Y39.360
G01 F400 X36.123 Y39.577
G01 F400 X35.887 Y39.748
G01 F400 X35.621 Y39.867
G01 F400 X35.336 Y39.927
G01 F400 X35.327 Y39.927
G01 F400 X35.327 Y43.507
G01 F400 X35.321 Y43.568
G01 F400 X35.300 Y43.633
G01 F400 X35.265 Y43.693
G01 F400 X35.220 Y43.744
G01 F400 X35.164 Y43.784
G01 F400 X35.101 Y43.812
G01 F400 X35.034 Y43.826
G01 F400 X31.827 Y43.826
G01 F400 X31.827 Y56.174
G01 F400 X33.854 Y56.174
G01 F400 X33.915 Y55.974
G01 F400 X34.062 Y55.720
G01 F400 X34.257 Y55.504
G01 F400 X34.493 Y55.332
G01 F400 X34.759 Y55.214
G01 F400 X35.044 Y55.153
G01 F400 X35.336 Y55.153
G01 F400 X35.621 Y55.214
G01 F400 X35.887 Y55.332
G01 F400 X36.123 Y55.504
G01 F400 X36.318 Y55.720
G01 F400 X36.464 Y55.973
G01 F400 X36.554 Y56.250
G01 F400 X36.585 Y56.540
G01 F400 X36.554 Y56.830
G01 F400 X36.464 Y57.107
G01 F400 X36.432 Y57.163
G01 F400 X39.864 Y57.174
G01 F400 X40.283 Y56.754
G01 F400 X40.336 Y56.716
G01 F400 X40.399 Y56.688
G01 F400 X40.466 Y56.674
G01 F400 X51.809 Y56.674
G01 F400 X51.795 Y56.540
G01 F400 X51.826 Y56.250
G01 F400 X51.916 Y55.973
G01 F400 X52.062 Y55.720
G01 F400 X52.257 Y55.504
G01 F400 X52.493 Y55.332
G01 F400 X52.759 Y55.214
G01 F400 X53.044 Y55.153
G01 F400 X53.336 Y55.153
G01 F400 X53.621 Y55.214
G01 F400 X53.887 Y55.332
G01 F400 X54.123 Y55.504
G01 F400 X54.318 Y55.720
G01 F400 X54.464 Y55.973
G01 F400 X54.554 Y56.250
G01 F400 X54.585 Y56.540
G01 F400 X54.554 Y56.830
G01 F400 X54.464 Y57.107
G01 F400 X54.432 Y57.163
G01 F400 X57.864 Y57.174
G01 F400 X58.283 Y56.754
G01 F400 X58.336 Y56.716
G01 F400 X58.399 Y56.688
G01 F400 X58.466 Y56.674
G01 F400 X69.809 Y56.674
G01 F400 X69.795 Y56.540
G01 F400 X69.826 Y56.250
G01 F400 X69.916 Y55.973
G01 F400 X70.062 Y55.720
G01 F400 X70.257 Y55.504
G01 F400 X70.493 Y55.332
G01 F400 X70.759 Y55.214
G01 F400 X71.044 Y55.153
G01 F400 X71.336 Y55.153
G01 F400 X71.621 Y55.214
G01 F400 X71.887 Y55.332
G01 F400 X72.123 Y55.504
G01 F400 X72.318 Y55.720
G01 F400 X72.464 Y55.973
G01 F400 X72.554 Y56.250
G01 F400 X72.585 Y56.540
G01 F400 X72.554 Y56.830
G01 F400 X72.464 Y57.107
G01 F400 X72.318 Y57.360
G01 F400 X72.123 Y57.577
G01 F400 X71.887 Y57.748
G01 F400 X71.621 Y57.867
G01 F400 X71.336 Y57.927
G01 F400 X71.044 Y57.927
G01 F400 X70.759 Y57.867
G01 F400 X70.493 Y57.748
G01 F400 X70.257 Y57.577
G01 F400 X70.062 Y57.360
G01 F400 X70.042 Y57.326
G01 F400 X58.636 Y57.326
G01 F400 X58.217 Y57.746
G01 F400 X58.164 Y57.784
G01 F400 X58.101 Y57.812
G01 F400 X58.034 Y57.826
G01 F400 X53.712 Y57.826
G01 F400 X53.621 Y57.867
G01 F400 X53.336 Y57.927
G01 F400 X53.044 Y57.927
G01 F400 X52.759 Y57.867
G01 F400 X52.493 Y57.748
G01 F400 X52.257 Y57.577
G01 F400 X52.062 Y57.360
G01 F400 X52.042 Y57.326
G01 F400 X40.636 Y57.326
G01 F400 X40.217 Y57.746
G01 F400 X40.164 Y57.784
G01 F400 X40.101 Y57.812
G01 F400 X40.034 Y57.826
G01 F400 X35.712 Y57.826
G01 F400 X35.621 Y57.867
G01 F400 X35.336 Y57.927
G01 F400 X35.044 Y57.927
G01 F400 X34.759 Y57.867
G01 F400 X34.493 Y57.748
G01 F400 X34.257 Y57.577
G01 F400 X34.062 Y57.360
G01 F400 X33.916 Y57.107
G01 F400 X33.826 Y56.830
G01 F400 X33.825 Y56.826
G01 F400 X31.466 Y56.826
G01 F400 X31.399 Y56.812
G01 F400 X31.336 Y56.784
G01 F400 X31.280 Y56.744
G01 F400 X31.235 Y56.693
G01 F400 X31.200 Y56.633
G01 F400 X31.179 Y56.568
G01 F400 X31.173 Y56.507
G01 F400 X31.173 Y43.826
G01 F400 X22.136 Y43.826
G01 F400 X13.827 Y52.135
G01 F400 X13.827 Y54.365
G01 F400 X15.636 Y56.174
G01 F400 X15.854 Y56.174
G01 F400 X15.915 Y55.974
G01 F400 X16.062 Y55.720
G01 F400 X16.257 Y55.504
G01 F400 X16.493 Y55.332
G01 F400 X16.759 Y55.214
G01 F400 X17.044 Y55.153
G01 F400 X17.336 Y55.153
G01 F400 X17.621 Y55.214
G01 F400 X17.887 Y55.332
G01 F400 X18.123 Y55.504
G01 F400 X18.318 Y55.720
G01 F400 X18.464 Y55.973
G01 F400 X18.554 Y56.250
G01 F400 X18.585 Y56.540
G01 F400 X18.554 Y56.830
G01 F400 X18.464 Y57.107
G01 F400 X18.318 Y57.360
G01 F400 X18.123 Y57.577
G01 F400 X17.887 Y57.748
G01 F400 X17.621 Y57.867
G01 F400 X17.336 Y57.927
G01 F400 X17.044 Y57.927
G00 Z3.000
G00  X33.773 Y55.403
G01 F750 Z0
G01 F400 Z-0.100
G01 F400 X33.484 Y55.342
G01 F400 X33.215 Y55.222
G01 F400 X32.976 Y55.048
G01 F400 X32.779 Y54.829
G01 F400 X32.631 Y54.574
G01 F400 X32.540 Y54.293
G01 F400 X32.509 Y54.000
G01 F400 X32.540 Y53.707
G01 F400 X32.631 Y53.426
G01 F400 X32.779 Y53.171
G01 F400 X32.976 Y52.952
G01 F400 X33.215 Y52.778
G01 F400 X33.484 Y52.659
G01 F400 X33.773 Y52.597
G01 F400 X34.067 Y52.597
G01 F400 X34.356 Y52.659
G01 F400 X34.625 Y52.778
G01 F400 X34.864 Y52.952
G01 F400 X35.061 Y53.171
G01 F400 X35.209 Y53.426
G01 F400 X35.300 Y53.707
G01 F400 X35.331 Y54.000
G01 F400 X35.300 Y54.293
G01 F400 X35.209 Y54.574
G01 F400 X35.061 Y54.829
G01 F400 X34.864 Y55.048
G01 F400 X34.625 Y55.222
G01 F400 X34.356 Y55.342
G01 F400 X34.067 Y55.403
G01 F400 X33.773 Y55.403
G00 Z3.000
G00  X43.933 Y55.403
G01 F750 Z0
G01 F400 Z-0.100
G01 F400 X43.644 Y55.342
G01 F400 X43.375 Y55.222
G01 F400 X43.136 Y55.048
G01 F400 X42.939 Y54.829
G01 F400 X42.791 Y54.574
G01 F400 X42.700 Y54.293
G01 F400 X42.669 Y54.000
G01 F400 X42.700 Y53.707
G01 F400 X42.791 Y53.426
G01 F400 X42.939 Y53.171
G01 F400 X43.136 Y52.952
G01 F400 X43.375 Y52.778
G01 F400 X43.644 Y52.659
G01 F400 X43.933 Y52.597
G01 F400 X44.227 Y52.597
G01 F400 X44.516 Y52.659
G01 F400 X44.785 Y52.778
G01 F400 X45.024 Y52.952
G01 F400 X45.221 Y53.171
G01 F400 X45.369 Y53.426
G01 F400 X45.460 Y53.707
G01 F400 X45.491 Y54.000
G01 F400 X45.460 Y54.293
G01 F400 X45.369 Y54.574
G01 F400 X45.221 Y54.829
G01 F400 X45.024 Y55.048
G01 F400 X44.785 Y55.222
G01 F400 X44.516 Y55.342
G01 F400 X44.227 Y55.403
G01 F400 X43.933 Y55.403
G00 Z3.000
G00  X15.773 Y55.403
G01 F750 Z0
G01 F400 Z-0.100
G01 F400 X15.484 Y55.342
G01 F400 X15.215 Y55.222
G01 F400 X14.976 Y55.048
G01 F400 X14.779 Y54.829
G01 F400 X14.631 Y54.574
G01 F400 X14.540 Y54.293
G01 F400 X14.509 Y54.000
G01 F400 X14.540 Y53.707
G01 F400 X14.631 Y53.426
G01 F400 X14.779 Y53.171
G01 F400 X14.976 Y52.952
G01 F400 X15.215 Y52.778
G01 F400 X15.484 Y52.659
G01 F400 X15.773 Y52.597
G01 F400 X16.067 Y52.597
G01 F400 X16.356 Y52.659
G01 F400 X16.625 Y52.778
G01 F400 X16.864 Y52.952
G01 F400 X17.061 Y53.171
G01 F400 X17.209 Y53.426
G01 F400 X17.300 Y53.707
G01 F400 X17.331 Y54.000
G01 F400 X17.300 Y54.293
G01 F400 X17.209 Y54.574
G01 F400 X17.061 Y54.829
G01 F400 X16.864 Y55.048
G01 F400 X16.625 Y55.222
G01 F400 X16.356 Y55.342
G01 F400 X16.067 Y55.403
G01 F400 X15.773 Y55.403
G00 Z3.000
G00  X25.933 Y55.403
G01 F750 Z0
G01 F400 Z-0.100
G01 F400 X25.644 Y55.342
G01 F400 X25.375 Y55.222
G01 F400 X25.136 Y55.048
G01 F400 X24.939 Y54.829
G01 F400 X24.791 Y54.574
G01 F400 X24.700 Y54.293
G01 F400 X24.669 Y54.000
G01 F400 X24.700 Y53.707
G01 F400 X24.791 Y53.426
G01 F400 X24.939 Y53.171
G01 F400 X25.136 Y52.952
G01 F400 X25.375 Y52.778
G01 F400 X25.644 Y52.659
G01 F400 X25.933 Y52.597
G01 F400 X26.227 Y52.597
G01 F400 X26.516 Y52.659
G01 F400 X26.785 Y52.778
G01 F400 X27.024 Y52.952
G01 F400 X27.221 Y53.171
G01 F400 X27.369 Y53.426
G01 F400 X27.460 Y53.707
G01 F400 X27.491 Y54.000
G01 F400 X27.460 Y54.293
G01 F400 X27.369 Y54.574
G01 F400 X27.221 Y54.829
G01 F400 X27.024 Y55.048
G01 F400 X26.785 Y55.222
G01 F400 X26.516 Y55.342
G01 F400 X26.227 Y55.403
G01 F400 X25.933 Y55.403
G00 Z3.000
G00  X69.773 Y55.403
G01 F750 Z0
G01 F400 Z-0.100
G01 F400 X69.484 Y55.342
G01 F400 X69.215 Y55.222
G01 F400 X68.976 Y55.048
G01 F400 X68.779 Y54.829
G01 F400 X68.631 Y54.574
G01 F400 X68.540 Y54.293
G01 F400 X68.509 Y54.000
G01 F400 X68.540 Y53.707
G01 F400 X68.631 Y53.426
G01 F400 X68.779 Y53.171
G01 F400 X68.976 Y52.952
G01 F400 X69.215 Y52.778
G01 F400 X69.484 Y52.659
G01 F400 X69.773 Y52.597
G01 F400 X70.067 Y52.597
G01 F400 X70.356 Y52.659
G01 F400 X70.625 Y52.778
G01 F400 X70.864 Y52.952
G01 F400 X71.061 Y53.171
G01 F400 X71.209 Y53.426
G01 F400 X71.300 Y53.707
G01 F400 X71.331 Y54.000
G01 F400 X71.300 Y54.293
G01 F400 X71.209 Y54.574
G01 F400 X71.061 Y54.829
G01 F400 X70.864 Y55.048
G01 F400 X70.625 Y55.222
G01 F400 X70.356 Y55.342
G01 F400 X70.067 Y55.403
G01 F400 X69.773 Y55.403
G00 Z3.000
G00  X79.933 Y55.403
G01 F750 Z0
G01 F400 Z-0.100
G01 F400 X79.644 Y55.342
G01 F400 X79.375 Y55.222
G01 F400 X79.136 Y55.048
G01 F400 X78.939 Y54.829
G01 F400 X78.791 Y54.574
G01 F400 X78.700 Y54.293
G01 F400 X78.669 Y54.000
G01 F400 X78.700 Y53.707
G01 F400 X78.791 Y53.426
G01 F400 X78.939 Y53.171
G01 F400 X79.136 Y52.952
G01 F400 X79.375 Y52.778
G01 F400 X79.644 Y52.659
G01 F400 X79.933 Y52.597
G01 F400 X80.227 Y52.597
G01 F400 X80.516 Y52.659
G01 F400 X80.785 Y52.778
G01 F400 X81.024 Y52.952
G01 F400 X81.221 Y53.171
G01 F400 X81.369 Y53.426
G01 F400 X81.460 Y53.707
G01 F400 X81.491 Y54.000
G01 F400 X81.460 Y54.293
G01 F400 X81.369 Y54.574
G01 F400 X81.221 Y54.829
G01 F400 X81.024 Y55.048
G01 F400 X80.785 Y55.222
G01 F400 X80.516 Y55.342
G01 F400 X80.227 Y55.403
G01 F400 X79.933 Y55.403
G00 Z3.000
G00  X51.773 Y55.403
G01 F750 Z0
G01 F400 Z-0.100
G01 F400 X51.484 Y55.342
G01 F400 X51.215 Y55.222
G01 F400 X50.976 Y55.048
G01 F400 X50.779 Y54.829
G01 F400 X50.631 Y54.574
G01 F400 X50.540 Y54.293
G01 F400 X50.509 Y54.000
G01 F400 X50.540 Y53.707
G01 F400 X50.631 Y53.426
G01 F400 X50.779 Y53.171
G01 F400 X50.976 Y52.952
G01 F400 X51.215 Y52.778
G01 F400 X51.484 Y52.659
G01 F400 X51.773 Y52.597
G01 F400 X52.067 Y52.597
G01 F400 X52.356 Y52.659
G01 F400 X52.625 Y52.778
G01 F400 X52.864 Y52.952
G01 F400 X53.061 Y53.171
G01 F400 X53.209 Y53.426
G01 F400 X53.300 Y53.707
G01 F400 X53.331 Y54.000
G01 F400 X53.300 Y54.293
G01 F400 X53.209 Y54.574
G01 F400 X53.061 Y54.829
G01 F400 X52.864 Y55.048
G01 F400 X52.625 Y55.222
G01 F400 X52.356 Y55.342
G01 F400 X52.067 Y55.403
G01 F400 X51.773 Y55.403
G00 Z3.000
G00  X61.933 Y55.403
G01 F750 Z0
G01 F400 Z-0.100
G01 F400 X61.644 Y55.342
G01 F400 X61.375 Y55.222
G01 F400 X61.136 Y55.048
G01 F400 X60.939 Y54.829
G01 F400 X60.791 Y54.574
G01 F400 X60.700 Y54.293
G01 F400 X60.669 Y54.000
G01 F400 X60.700 Y53.707
G01 F400 X60.791 Y53.426
G01 F400 X60.939 Y53.171
G01 F400 X61.136 Y52.952
G01 F400 X61.375 Y52.778
G01 F400 X61.644 Y52.659
G01 F400 X61.933 Y52.597
G01 F400 X62.227 Y52.597
G01 F400 X62.516 Y52.659
G01 F400 X62.785 Y52.778
G01 F400 X63.024 Y52.952
G01 F400 X63.221 Y53.171
G01 F400 X63.369 Y53.426
G01 F400 X63.460 Y53.707
G01 F400 X63.491 Y54.000
G01 F400 X63.460 Y54.293
G01 F400 X63.369 Y54.574
G01 F400 X63.221 Y54.829
G01 F400 X63.024 Y55.048
G01 F400 X62.785 Y55.222
G01 F400 X62.516 Y55.342
G01 F400 X62.227 Y55.403
G01 F400 X61.933 Y55.403
G00 Z3.000
G00  X41.966 Y44.826
G01 F750 Z0
G01 F400 Z-0.100
G01 F400 X41.899 Y44.812
G01 F400 X41.836 Y44.784
G01 F400 X41.781 Y44.744
G01 F400 X41.735 Y44.693
G01 F400 X41.700 Y44.633
G01 F400 X41.679 Y44.568
G01 F400 X41.673 Y44.507
G01 F400 X41.673 Y42.467
G01 F400 X41.394 Y42.467
G01 F400 X41.109 Y42.407
G01 F400 X40.843 Y42.288
G01 F400 X40.607 Y42.117
G01 F400 X40.412 Y41.900
G01 F400 X40.266 Y41.647
G01 F400 X40.176 Y41.370
G01 F400 X40.145 Y41.080
G01 F400 X40.176 Y40.790
G01 F400 X40.266 Y40.513
G01 F400 X40.412 Y40.260
G01 F400 X40.607 Y40.044
G01 F400 X40.843 Y39.872
G01 F400 X41.109 Y39.754
G01 F400 X41.394 Y39.693
G01 F400 X41.686 Y39.693
G01 F400 X41.971 Y39.754
G01 F400 X42.237 Y39.872
G01 F400 X42.473 Y40.044
G01 F400 X42.668 Y40.260
G01 F400 X42.814 Y40.513
G01 F400 X42.904 Y40.790
G01 F400 X42.935 Y41.080
G01 F400 X42.904 Y41.370
G01 F400 X42.814 Y41.647
G01 F400 X42.668 Y41.900
G01 F400 X42.473 Y42.117
G01 F400 X42.327 Y42.223
G01 F400 X42.327 Y44.174
G01 F400 X78.364 Y44.174
G01 F400 X82.173 Y40.365
G01 F400 X82.173 Y35.635
G01 F400 X70.274 Y23.736
G01 F400 X70.235 Y23.693
G01 F400 X70.200 Y23.633
G01 F400 X70.179 Y23.568
G01 F400 X70.173 Y23.507
G01 F400 X70.173 Y3.826
G01 F400 X15.136 Y3.826
G01 F400 X13.327 Y5.635
G01 F400 X13.327 Y7.674
G01 F400 X27.034 Y7.674
G01 F400 X27.101 Y7.688
G01 F400 X27.164 Y7.716
G01 F400 X27.217 Y7.754
G01 F400 X42.523 Y23.061
G01 F400 X42.538 Y23.054
G01 F400 X42.718 Y23.016
G01 F400 X42.902 Y23.016
G01 F400 X43.082 Y23.054
G01 F400 X43.249 Y23.129
G01 F400 X43.398 Y23.237
G01 F400 X43.521 Y23.373
G01 F400 X43.613 Y23.533
G01 F400 X43.670 Y23.707
G01 F400 X43.689 Y23.890
G01 F400 X43.670 Y24.073
G01 F400 X43.613 Y24.247
G01 F400 X43.521 Y24.407
G01 F400 X43.398 Y24.543
G01 F400 X43.249 Y24.651
G01 F400 X43.082 Y24.726
G01 F400 X42.902 Y24.764
G01 F400 X42.718 Y24.764
G01 F400 X42.538 Y24.726
G01 F400 X42.371 Y24.651
G01 F400 X42.222 Y24.543
G01 F400 X42.099 Y24.407
G01 F400 X42.007 Y24.247
G01 F400 X41.950 Y24.073
G01 F400 X41.931 Y23.890
G01 F400 X41.950 Y23.707
G01 F400 X42.007 Y23.533
G01 F400 X42.030 Y23.493
G01 F400 X26.864 Y8.326
G01 F400 X12.966 Y8.326
G01 F400 X12.899 Y8.312
G01 F400 X12.836 Y8.284
G01 F400 X12.780 Y8.244
G01 F400 X12.735 Y8.193
G01 F400 X12.700 Y8.133
G01 F400 X12.679 Y8.068
G01 F400 X12.673 Y8.007
G01 F400 X12.673 Y5.494
G01 F400 X12.679 Y5.432
G01 F400 X12.700 Y5.367
G01 F400 X12.735 Y5.307
G01 F400 X12.774 Y5.264
G01 F400 X14.783 Y3.254
G01 F400 X14.836 Y3.216
G01 F400 X14.899 Y3.188
G01 F400 X14.966 Y3.174
G01 F400 X70.534 Y3.174
G01 F400 X70.601 Y3.188
G01 F400 X70.664 Y3.216
G01 F400 X70.719 Y3.256
G01 F400 X70.765 Y3.307
G01 F400 X70.800 Y3.367
G01 F400 X70.821 Y3.432
G01 F400 X70.827 Y3.494
G01 F400 X70.827 Y23.365
G01 F400 X82.726 Y35.264
G01 F400 X82.765 Y35.307
G01 F400 X82.800 Y35.367
G01 F400 X82.821 Y35.432
G01 F400 X82.827 Y35.494
G01 F400 X82.827 Y40.507
G01 F400 X82.821 Y40.568
G01 F400 X82.800 Y40.633
G01 F400 X82.765 Y40.693
G01 F400 X82.726 Y40.736
G01 F400 X78.717 Y44.746
G01 F400 X78.664 Y44.784
G01 F400 X78.601 Y44.812
G01 F400 X78.534 Y44.826
G01 F400 X41.966 Y44.826
G00 Z3.000
G00  X23.394 Y42.467
G01 F750 Z0
G01 F400 Z-0.100
G01 F400 X23.109 Y42.407
G01 F400 X22.843 Y42.288
G01 F400 X22.607 Y42.117
G01 F400 X22.412 Y41.900
G01 F400 X22.266 Y41.647
G01 F400 X22.176 Y41.370
G01 F400 X22.145 Y41.080
G01 F400 X22.176 Y40.790
G01 F400 X22.266 Y40.513
G01 F400 X22.412 Y40.260
G01 F400 X22.607 Y40.044
G01 F400 X22.843 Y39.872
G01 F400 X23.109 Y39.754
G01 F400 X23.394 Y39.693
G01 F400 X23.686 Y39.693
G01 F400 X23.971 Y39.754
G01 F400 X24.237 Y39.872
G01 F400 X24.473 Y40.044
G01 F400 X24.483 Y40.054
G01 F400 X28.173 Y36.365
G01 F400 X28.173 Y32.494
G01 F400 X28.179 Y32.432
G01 F400 X28.200 Y32.367
G01 F400 X28.235 Y32.307
G01 F400 X28.280 Y32.256
G01 F400 X28.336 Y32.216
G01 F400 X28.399 Y32.188
G01 F400 X28.466 Y32.174
G01 F400 X41.364 Y32.174
G01 F400 X49.560 Y23.977
G01 F400 X49.551 Y23.890
G01 F400 X49.570 Y23.707
G01 F400 X49.627 Y23.533
G01 F400 X49.719 Y23.373
G01 F400 X49.842 Y23.237
G01 F400 X49.991 Y23.129
G01 F400 X50.158 Y23.054
G01 F400 X50.338 Y23.016
G01 F400 X50.522 Y23.016
G01 F400 X50.702 Y23.054
G01 F400 X50.869 Y23.129
G01 F400 X51.018 Y23.237
G01 F400 X51.141 Y23.373
G01 F400 X51.233 Y23.533
G01 F400 X51.290 Y23.707
G01 F400 X51.309 Y23.890
G01 F400 X51.290 Y24.073
G01 F400 X51.233 Y24.247
G01 F400 X51.141 Y24.407
G01 F400 X51.018 Y24.543
G01 F400 X50.869 Y24.651
G01 F400 X50.702 Y24.726
G01 F400 X50.522 Y24.764
G01 F400 X50.338 Y24.764
G01 F400 X50.158 Y24.726
G01 F400 X49.991 Y24.651
G01 F400 X49.887 Y24.576
G01 F400 X41.717 Y32.746
G01 F400 X41.664 Y32.784
G01 F400 X41.601 Y32.812
G01 F400 X41.534 Y32.826
G01 F400 X28.827 Y32.826
G01 F400 X28.827 Y36.507
G01 F400 X28.821 Y36.568
G01 F400 X28.800 Y36.633
G01 F400 X28.765 Y36.693
G01 F400 X28.726 Y36.736
G01 F400 X24.847 Y40.615
G01 F400 X24.904 Y40.790
G01 F400 X24.935 Y41.080
G01 F400 X24.904 Y41.370
G01 F400 X24.814 Y41.647
G01 F400 X24.668 Y41.900
G01 F400 X24.473 Y42.117
G01 F400 X24.237 Y42.288
G01 F400 X23.971 Y42.407
G01 F400 X23.686 Y42.467
G01 F400 X23.394 Y42.467
G00 Z3.000
G00  X77.394 Y42.467
G01 F750 Z0
G01 F400 Z-0.100
G01 F400 X77.109 Y42.407
G01 F400 X76.843 Y42.288
G01 F400 X76.607 Y42.117
G01 F400 X76.412 Y41.900
G01 F400 X76.266 Y41.647
G01 F400 X76.176 Y41.370
G01 F400 X76.171 Y41.326
G01 F400 X70.466 Y41.326
G01 F400 X70.399 Y41.312
G01 F400 X70.336 Y41.284
G01 F400 X70.283 Y41.246
G01 F400 X66.274 Y37.236
G01 F400 X66.235 Y37.193
G01 F400 X66.200 Y37.133
G01 F400 X66.179 Y37.068
G01 F400 X66.173 Y37.007
G01 F400 X66.173 Y34.635
G01 F400 X56.088 Y24.550
G01 F400 X55.949 Y24.651
G01 F400 X55.782 Y24.726
G01 F400 X55.602 Y24.764
G01 F400 X55.418 Y24.764
G01 F400 X55.238 Y24.726
G01 F400 X55.071 Y24.651
G01 F400 X54.922 Y24.543
G01 F400 X54.799 Y24.407
G01 F400 X54.707 Y24.247
G01 F400 X54.650 Y24.073
G01 F400 X54.631 Y23.890
G01 F400 X54.650 Y23.707
G01 F400 X54.707 Y23.533
G01 F400 X54.799 Y23.373
G01 F400 X54.922 Y23.237
G01 F400 X55.071 Y23.129
G01 F400 X55.238 Y23.054
G01 F400 X55.418 Y23.016
G01 F400 X55.602 Y23.016
G01 F400 X55.782 Y23.054
G01 F400 X55.949 Y23.129
G01 F400 X56.098 Y23.237
G01 F400 X56.221 Y23.373
G01 F400 X56.313 Y23.533
G01 F400 X56.370 Y23.707
G01 F400 X56.389 Y23.890
G01 F400 X56.385 Y23.923
G01 F400 X66.726 Y34.264
G01 F400 X66.765 Y34.307
G01 F400 X66.800 Y34.367
G01 F400 X66.821 Y34.432
G01 F400 X66.827 Y34.494
G01 F400 X66.827 Y36.865
G01 F400 X70.636 Y40.674
G01 F400 X76.214 Y40.674
G01 F400 X76.266 Y40.513
G01 F400 X76.412 Y40.260
G01 F400 X76.607 Y40.044
G01 F400 X76.843 Y39.872
G01 F400 X77.109 Y39.754
G01 F400 X77.394 Y39.693
G01 F400 X77.686 Y39.693
G01 F400 X77.971 Y39.754
G01 F400 X78.237 Y39.872
G01 F400 X78.473 Y40.044
G01 F400 X78.668 Y40.260
G01 F400 X78.814 Y40.513
G01 F400 X78.904 Y40.790
G01 F400 X78.935 Y41.080
G01 F400 X78.904 Y41.370
G01 F400 X78.814 Y41.647
G01 F400 X78.668 Y41.900
G01 F400 X78.473 Y42.117
G01 F400 X78.237 Y42.288
G01 F400 X77.971 Y42.407
G01 F400 X77.686 Y42.467
G01 F400 X77.394 Y42.467
G00 Z3.000
G00  X59.394 Y42.467
G01 F750 Z0
G01 F400 Z-0.100
G01 F400 X59.109 Y42.407
G01 F400 X58.843 Y42.288
G01 F400 X58.607 Y42.117
G01 F400 X58.412 Y41.900
G01 F400 X58.266 Y41.647
G01 F400 X58.176 Y41.370
G01 F400 X58.145 Y41.080
G01 F400 X58.176 Y40.790
G01 F400 X58.266 Y40.513
G01 F400 X58.412 Y40.260
G01 F400 X58.607 Y40.044
G01 F400 X58.843 Y39.872
G01 F400 X59.109 Y39.754
G01 F400 X59.394 Y39.693
G01 F400 X59.686 Y39.693
G01 F400 X59.971 Y39.754
G01 F400 X60.237 Y39.872
G01 F400 X60.473 Y40.044
G01 F400 X60.483 Y40.054
G01 F400 X64.173 Y36.365
G01 F400 X64.173 Y35.635
G01 F400 X53.257 Y24.719
G01 F400 X53.242 Y24.726
G01 F400 X53.062 Y24.764
G01 F400 X52.878 Y24.764
G01 F400 X52.698 Y24.726
G01 F400 X52.531 Y24.651
G01 F400 X52.382 Y24.543
G01 F400 X52.259 Y24.407
G01 F400 X52.167 Y24.247
G01 F400 X52.110 Y24.073
G01 F400 X52.091 Y23.890
G01 F400 X52.110 Y23.707
G01 F400 X52.167 Y23.533
G01 F400 X52.259 Y23.373
G01 F400 X52.382 Y23.237
G01 F400 X52.531 Y23.129
G01 F400 X52.698 Y23.054
G01 F400 X52.878 Y23.016
G01 F400 X53.062 Y23.016
G01 F400 X53.242 Y23.054
G01 F400 X53.409 Y23.129
G01 F400 X53.558 Y23.237
G01 F400 X53.681 Y23.373
G01 F400 X53.773 Y23.533
G01 F400 X53.830 Y23.707
G01 F400 X53.849 Y23.890
G01 F400 X53.830 Y24.073
G01 F400 X53.773 Y24.247
G01 F400 X53.750 Y24.287
G01 F400 X64.726 Y35.264
G01 F400 X64.765 Y35.307
G01 F400 X64.800 Y35.367
G01 F400 X64.821 Y35.432
G01 F400 X64.827 Y35.494
G01 F400 X64.827 Y36.507
G01 F400 X64.821 Y36.568
G01 F400 X64.800 Y36.633
G01 F400 X64.765 Y36.693
G01 F400 X64.726 Y36.736
G01 F400 X60.847 Y40.615
G01 F400 X60.904 Y40.790
G01 F400 X60.935 Y41.080
G01 F400 X60.904 Y41.370
G01 F400 X60.814 Y41.647
G01 F400 X60.668 Y41.900
G01 F400 X60.473 Y42.117
G01 F400 X60.237 Y42.288
G01 F400 X59.971 Y42.407
G01 F400 X59.686 Y42.467
G01 F400 X59.394 Y42.467
G00 Z3.000
G00  X15.773 Y37.403
G01 F750 Z0
G01 F400 Z-0.100
G01 F400 X15.484 Y37.342
G01 F400 X15.215 Y37.222
G01 F400 X14.976 Y37.048
G01 F400 X14.779 Y36.829
G01 F400 X14.631 Y36.574
G01 F400 X14.540 Y36.293
G01 F400 X14.509 Y36.000
G01 F400 X14.540 Y35.707
G01 F400 X14.631 Y35.426
G01 F400 X14.779 Y35.171
G01 F400 X14.976 Y34.952
G01 F400 X15.215 Y34.778
G01 F400 X15.484 Y34.659
G01 F400 X15.773 Y34.597
G01 F400 X16.067 Y34.597
G01 F400 X16.356 Y34.659
G01 F400 X16.625 Y34.778
G01 F400 X16.864 Y34.952
G01 F400 X17.061 Y35.171
G01 F400 X17.209 Y35.426
G01 F400 X17.300 Y35.707
G01 F400 X17.331 Y36.000
G01 F400 X17.300 Y36.293
G01 F400 X17.209 Y36.574
G01 F400 X17.061 Y36.829
G01 F400 X16.864 Y37.048
G01 F400 X16.625 Y37.222
G01 F400 X16.356 Y37.342
G01 F400 X16.067 Y37.403
G01 F400 X15.773 Y37.403
G00 Z3.000
G00  X25.933 Y37.403
G01 F750 Z0
G01 F400 Z-0.100
G01 F400 X25.644 Y37.342
G01 F400 X25.375 Y37.222
G01 F400 X25.136 Y37.048
G01 F400 X24.939 Y36.829
G01 F400 X24.791 Y36.574
G01 F400 X24.700 Y36.293
G01 F400 X24.669 Y36.000
G01 F400 X24.700 Y35.707
G01 F400 X24.791 Y35.426
G01 F400 X24.939 Y35.171
G01 F400 X25.136 Y34.952
G01 F400 X25.375 Y34.778
G01 F400 X25.644 Y34.659
G01 F400 X25.933 Y34.597
G01 F400 X26.227 Y34.597
G01 F400 X26.516 Y34.659
G01 F400 X26.785 Y34.778
G01 F400 X27.024 Y34.952
G01 F400 X27.221 Y35.171
G01 F400 X27.369 Y35.426
G01 F400 X27.460 Y35.707
G01 F400 X27.491 Y36.000
G01 F400 X27.460 Y36.293
G01 F400 X27.369 Y36.574
G01 F400 X27.221 Y36.829
G01 F400 X27.024 Y37.048
G01 F400 X26.785 Y37.222
G01 F400 X26.516 Y37.342
G01 F400 X26.227 Y37.403
G01 F400 X25.933 Y37.403
G00 Z3.000
G00  X33.773 Y37.403
G01 F750 Z0
G01 F400 Z-0.100
G01 F400 X33.484 Y37.342
G01 F400 X33.215 Y37.222
G01 F400 X32.976 Y37.048
G01 F400 X32.779 Y36.829
G01 F400 X32.631 Y36.574
G01 F400 X32.540 Y36.293
G01 F400 X32.509 Y36.000
G01 F400 X32.540 Y35.707
G01 F400 X32.631 Y35.426
G01 F400 X32.779 Y35.171
G01 F400 X32.976 Y34.952
G01 F400 X33.215 Y34.778
G01 F400 X33.484 Y34.659
G01 F400 X33.773 Y34.597
G01 F400 X34.067 Y34.597
G01 F400 X34.356 Y34.659
G01 F400 X34.625 Y34.778
G01 F400 X34.864 Y34.952
G01 F400 X35.061 Y35.171
G01 F400 X35.209 Y35.426
G01 F400 X35.300 Y35.707
G01 F400 X35.331 Y36.000
G01 F400 X35.300 Y36.293
G01 F400 X35.209 Y36.574
G01 F400 X35.061 Y36.829
G01 F400 X34.864 Y37.048
G01 F400 X34.625 Y37.222
G01 F400 X34.356 Y37.342
G01 F400 X34.067 Y37.403
G01 F400 X33.773 Y37.403
G00 Z3.000
G00  X43.933 Y37.403
G01 F750 Z0
G01 F400 Z-0.100
G01 F400 X43.644 Y37.342
G01 F400 X43.375 Y37.222
G01 F400 X43.136 Y37.048
G01 F400 X42.939 Y36.829
G01 F400 X42.791 Y36.574
G01 F400 X42.700 Y36.293
G01 F400 X42.669 Y36.000
G01 F400 X42.700 Y35.707
G01 F400 X42.791 Y35.426
G01 F400 X42.939 Y35.171
G01 F400 X43.136 Y34.952
G01 F400 X43.375 Y34.778
G01 F400 X43.644 Y34.659
G01 F400 X43.933 Y34.597
G01 F400 X44.227 Y34.597
G01 F400 X44.516 Y34.659
G01 F400 X44.785 Y34.778
G01 F400 X45.024 Y34.952
G01 F400 X45.221 Y35.171
G01 F400 X45.369 Y35.426
G01 F400 X45.460 Y35.707
G01 F400 X45.491 Y36.000
G01 F400 X45.460 Y36.293
G01 F400 X45.369 Y36.574
G01 F400 X45.221 Y36.829
G01 F400 X45.024 Y37.048
G01 F400 X44.785 Y37.222
G01 F400 X44.516 Y37.342
G01 F400 X44.227 Y37.403
G01 F400 X43.933 Y37.403
G00 Z3.000
G00  X69.773 Y37.403
G01 F750 Z0
G01 F400 Z-0.100
G01 F400 X69.484 Y37.342
G01 F400 X69.215 Y37.222
G01 F400 X68.976 Y37.048
G01 F400 X68.779 Y36.829
G01 F400 X68.631 Y36.574
G01 F400 X68.540 Y36.293
G01 F400 X68.509 Y36.000
G01 F400 X68.540 Y35.707
G01 F400 X68.631 Y35.426
G01 F400 X68.779 Y35.171
G01 F400 X68.976 Y34.952
G01 F400 X69.215 Y34.778
G01 F400 X69.484 Y34.659
G01 F400 X69.773 Y34.597
G01 F400 X70.067 Y34.597
G01 F400 X70.356 Y34.659
G01 F400 X70.625 Y34.778
G01 F400 X70.864 Y34.952
G01 F400 X71.061 Y35.171
G01 F400 X71.209 Y35.426
G01 F400 X71.300 Y35.707
G01 F400 X71.331 Y36.000
G01 F400 X71.300 Y36.293
G01 F400 X71.209 Y36.574
G01 F400 X71.061 Y36.829
G01 F400 X70.864 Y37.048
G01 F400 X70.625 Y37.222
G01 F400 X70.356 Y37.342
G01 F400 X70.067 Y37.403
G01 F400 X69.773 Y37.403
G00 Z3.000
G00  X79.933 Y37.403
G01 F750 Z0
G01 F400 Z-0.100
G01 F400 X79.644 Y37.342
G01 F400 X79.375 Y37.222
G01 F400 X79.136 Y37.048
G01 F400 X78.939 Y36.829
G01 F400 X78.791 Y36.574
G01 F400 X78.700 Y36.293
G01 F400 X78.669 Y36.000
G01 F400 X78.700 Y35.707
G01 F400 X78.791 Y35.426
G01 F400 X78.939 Y35.171
G01 F400 X79.136 Y34.952
G01 F400 X79.375 Y34.778
G01 F400 X79.644 Y34.659
G01 F400 X79.933 Y34.597
G01 F400 X80.227 Y34.597
G01 F400 X80.516 Y34.659
G01 F400 X80.785 Y34.778
G01 F400 X81.024 Y34.952
G01 F400 X81.221 Y35.171
G01 F400 X81.369 Y35.426
G01 F400 X81.460 Y35.707
G01 F400 X81.491 Y36.000
G01 F400 X81.460 Y36.293
G01 F400 X81.369 Y36.574
G01 F400 X81.221 Y36.829
G01 F400 X81.024 Y37.048
G01 F400 X80.785 Y37.222
G01 F400 X80.516 Y37.342
G01 F400 X80.227 Y37.403
G01 F400 X79.933 Y37.403
G00 Z3.000
G00  X51.773 Y37.403
G01 F750 Z0
G01 F400 Z-0.100
G01 F400 X51.484 Y37.342
G01 F400 X51.215 Y37.222
G01 F400 X50.976 Y37.048
G01 F400 X50.779 Y36.829
G01 F400 X50.631 Y36.574
G01 F400 X50.540 Y36.293
G01 F400 X50.509 Y36.000
G01 F400 X50.540 Y35.707
G01 F400 X50.631 Y35.426
G01 F400 X50.779 Y35.171
G01 F400 X50.976 Y34.952
G01 F400 X51.215 Y34.778
G01 F400 X51.484 Y34.659
G01 F400 X51.773 Y34.597
G01 F400 X52.067 Y34.597
G01 F400 X52.356 Y34.659
G01 F400 X52.625 Y34.778
G01 F400 X52.864 Y34.952
G01 F400 X53.061 Y35.171
G01 F400 X53.209 Y35.426
G01 F400 X53.300 Y35.707
G01 F400 X53.331 Y36.000
G01 F400 X53.300 Y36.293
G01 F400 X53.209 Y36.574
G01 F400 X53.061 Y36.829
G01 F400 X52.864 Y37.048
G01 F400 X52.625 Y37.222
G01 F400 X52.356 Y37.342
G01 F400 X52.067 Y37.403
G01 F400 X51.773 Y37.403
G00 Z3.000
G00  X61.933 Y37.403
G01 F750 Z0
G01 F400 Z-0.100
G01 F400 X61.644 Y37.342
G01 F400 X61.375 Y37.222
G01 F400 X61.136 Y37.048
G01 F400 X60.939 Y36.829
G01 F400 X60.791 Y36.574
G01 F400 X60.700 Y36.293
G01 F400 X60.669 Y36.000
G01 F400 X60.700 Y35.707
G01 F400 X60.791 Y35.426
G01 F400 X60.939 Y35.171
G01 F400 X61.136 Y34.952
G01 F400 X61.375 Y34.778
G01 F400 X61.644 Y34.659
G01 F400 X61.933 Y34.597
G01 F400 X62.227 Y34.597
G01 F400 X62.516 Y34.659
G01 F400 X62.785 Y34.778
G01 F400 X63.024 Y34.952
G01 F400 X63.221 Y35.171
G01 F400 X63.369 Y35.426
G01 F400 X63.460 Y35.707
G01 F400 X63.491 Y36.000
G01 F400 X63.460 Y36.293
G01 F400 X63.369 Y36.574
G01 F400 X63.221 Y36.829
G01 F400 X63.024 Y37.048
G01 F400 X62.785 Y37.222
G01 F400 X62.516 Y37.342
G01 F400 X62.227 Y37.403
G01 F400 X61.933 Y37.403
G00 Z3.000
G00  X35.098 Y24.764
G01 F750 Z0
G01 F400 Z-0.100
G01 F400 X34.918 Y24.726
G01 F400 X34.751 Y24.651
G01 F400 X34.602 Y24.543
G01 F400 X34.479 Y24.407
G01 F400 X34.387 Y24.247
G01 F400 X34.330 Y24.073
G01 F400 X34.311 Y23.890
G01 F400 X34.330 Y23.707
G01 F400 X34.387 Y23.533
G01 F400 X34.479 Y23.373
G01 F400 X34.602 Y23.237
G01 F400 X34.751 Y23.129
G01 F400 X34.918 Y23.054
G01 F400 X35.098 Y23.016
G01 F400 X35.282 Y23.016
G01 F400 X35.462 Y23.054
G01 F400 X35.629 Y23.129
G01 F400 X35.778 Y23.237
G01 F400 X35.901 Y23.373
G01 F400 X35.993 Y23.533
G01 F400 X36.050 Y23.707
G01 F400 X36.069 Y23.890
G01 F400 X36.050 Y24.073
G01 F400 X35.993 Y24.247
G01 F400 X35.901 Y24.407
G01 F400 X35.778 Y24.543
G01 F400 X35.629 Y24.651
G01 F400 X35.462 Y24.726
G01 F400 X35.282 Y24.764
G01 F400 X35.098 Y24.764
G00 Z3.000
G00  X24.938 Y24.764
G01 F750 Z0
G01 F400 Z-0.100
G01 F400 X24.758 Y24.726
G01 F400 X24.591 Y24.651
G01 F400 X24.442 Y24.543
G01 F400 X24.319 Y24.407
G01 F400 X24.227 Y24.247
G01 F400 X24.170 Y24.073
G01 F400 X24.151 Y23.890
G01 F400 X24.170 Y23.707
G01 F400 X24.227 Y23.533
G01 F400 X24.319 Y23.373
G01 F400 X24.442 Y23.237
G01 F400 X24.591 Y23.129
G01 F400 X24.758 Y23.054
G01 F400 X24.938 Y23.016
G01 F400 X25.122 Y23.016
G01 F400 X25.302 Y23.054
G01 F400 X25.469 Y23.129
G01 F400 X25.618 Y23.237
G01 F400 X25.741 Y23.373
G01 F400 X25.833 Y23.533
G01 F400 X25.890 Y23.707
G01 F400 X25.909 Y23.890
G01 F400 X25.890 Y24.073
G01 F400 X25.833 Y24.247
G01 F400 X25.741 Y24.407
G01 F400 X25.618 Y24.543
G01 F400 X25.469 Y24.651
G01 F400 X25.302 Y24.726
G01 F400 X25.122 Y24.764
G01 F400 X24.938 Y24.764
G00 Z3.000
G00  X32.558 Y24.764
G01 F750 Z0
G01 F400 Z-0.100
G01 F400 X32.378 Y24.726
G01 F400 X32.211 Y24.651
G01 F400 X32.062 Y24.543
G01 F400 X31.939 Y24.407
G01 F400 X31.847 Y24.247
G01 F400 X31.790 Y24.073
G01 F400 X31.771 Y23.890
G01 F400 X31.790 Y23.707
G01 F400 X31.847 Y23.533
G01 F400 X31.939 Y23.373
G01 F400 X32.062 Y23.237
G01 F400 X32.211 Y23.129
G01 F400 X32.378 Y23.054
G01 F400 X32.558 Y23.016
G01 F400 X32.742 Y23.016
G01 F400 X32.922 Y23.054
G01 F400 X33.089 Y23.129
G01 F400 X33.238 Y23.237
G01 F400 X33.361 Y23.373
G01 F400 X33.453 Y23.533
G01 F400 X33.510 Y23.707
G01 F400 X33.529 Y23.890
G01 F400 X33.510 Y24.073
G01 F400 X33.453 Y24.247
G01 F400 X33.361 Y24.407
G01 F400 X33.238 Y24.543
G01 F400 X33.089 Y24.651
G01 F400 X32.922 Y24.726
G01 F400 X32.742 Y24.764
G01 F400 X32.558 Y24.764
G00 Z3.000
G00  X47.798 Y24.764
G01 F750 Z0
G01 F400 Z-0.100
G01 F400 X47.618 Y24.726
G01 F400 X47.451 Y24.651
G01 F400 X47.302 Y24.543
G01 F400 X47.179 Y24.407
G01 F400 X47.087 Y24.247
G01 F400 X47.030 Y24.073
G01 F400 X47.011 Y23.890
G01 F400 X47.030 Y23.707
G01 F400 X47.087 Y23.533
G01 F400 X47.179 Y23.373
G01 F400 X47.302 Y23.237
G01 F400 X47.451 Y23.129
G01 F400 X47.618 Y23.054
G01 F400 X47.798 Y23.016
G01 F400 X47.982 Y23.016
G01 F400 X48.162 Y23.054
G01 F400 X48.329 Y23.129
G01 F400 X48.478 Y23.237
G01 F400 X48.601 Y23.373
G01 F400 X48.693 Y23.533
G01 F400 X48.750 Y23.707
G01 F400 X48.769 Y23.890
G01 F400 X48.750 Y24.073
G01 F400 X48.693 Y24.247
G01 F400 X48.601 Y24.407
G01 F400 X48.478 Y24.543
G01 F400 X48.329 Y24.651
G01 F400 X48.162 Y24.726
G01 F400 X47.982 Y24.764
G01 F400 X47.798 Y24.764
G00 Z3.000
G00  X45.258 Y24.764
G01 F750 Z0
G01 F400 Z-0.100
G01 F400 X45.078 Y24.726
G01 F400 X44.911 Y24.651
G01 F400 X44.762 Y24.543
G01 F400 X44.639 Y24.407
G01 F400 X44.547 Y24.247
G01 F400 X44.490 Y24.073
G01 F400 X44.471 Y23.890
G01 F400 X44.490 Y23.707
G01 F400 X44.547 Y23.533
G01 F400 X44.639 Y23.373
G01 F400 X44.762 Y23.237
G01 F400 X44.911 Y23.129
G01 F400 X45.078 Y23.054
G01 F400 X45.258 Y23.016
G01 F400 X45.442 Y23.016
G01 F400 X45.622 Y23.054
G01 F400 X45.789 Y23.129
G01 F400 X45.938 Y23.237
G01 F400 X46.061 Y23.373
G01 F400 X46.153 Y23.533
G01 F400 X46.210 Y23.707
G01 F400 X46.229 Y23.890
G01 F400 X46.210 Y24.073
G01 F400 X46.153 Y24.247
G01 F400 X46.061 Y24.407
G01 F400 X45.938 Y24.543
G01 F400 X45.789 Y24.651
G01 F400 X45.622 Y24.726
G01 F400 X45.442 Y24.764
G01 F400 X45.258 Y24.764
G00 Z3.000
G00  X63.038 Y24.764
G01 F750 Z0
G01 F400 Z-0.100
G01 F400 X62.858 Y24.726
G01 F400 X62.691 Y24.651
G01 F400 X62.542 Y24.543
G01 F400 X62.419 Y24.407
G01 F400 X62.327 Y24.247
G01 F400 X62.270 Y24.073
G01 F400 X62.251 Y23.890
G01 F400 X62.270 Y23.707
G01 F400 X62.327 Y23.533
G01 F400 X62.419 Y23.373
G01 F400 X62.542 Y23.237
G01 F400 X62.691 Y23.129
G01 F400 X62.858 Y23.054
G01 F400 X63.038 Y23.016
G01 F400 X63.222 Y23.016
G01 F400 X63.402 Y23.054
G01 F400 X63.569 Y23.129
G01 F400 X63.718 Y23.237
G01 F400 X63.841 Y23.373
G01 F400 X63.933 Y23.533
G01 F400 X63.990 Y23.707
G01 F400 X64.009 Y23.890
G01 F400 X63.990 Y24.073
G01 F400 X63.933 Y24.247
G01 F400 X63.841 Y24.407
G01 F400 X63.718 Y24.543
G01 F400 X63.569 Y24.651
G01 F400 X63.402 Y24.726
G01 F400 X63.222 Y24.764
G01 F400 X63.038 Y24.764
G00 Z3.000
G00  X60.498 Y24.764
G01 F750 Z0
G01 F400 Z-0.100
G01 F400 X60.318 Y24.726
G01 F400 X60.151 Y24.651
G01 F400 X60.002 Y24.543
G01 F400 X59.879 Y24.407
G01 F400 X59.787 Y24.247
G01 F400 X59.730 Y24.073
G01 F400 X59.711 Y23.890
G01 F400 X59.730 Y23.707
G01 F400 X59.787 Y23.533
G01 F400 X59.879 Y23.373
G01 F400 X60.002 Y23.237
G01 F400 X60.151 Y23.129
G01 F400 X60.318 Y23.054
G01 F400 X60.498 Y23.016
G01 F400 X60.682 Y23.016
G01 F400 X60.862 Y23.054
G01 F400 X61.029 Y23.129
G01 F400 X61.178 Y23.237
G01 F400 X61.301 Y23.373
G01 F400 X61.393 Y23.533
G01 F400 X61.450 Y23.707
G01 F400 X61.469 Y23.890
G01 F400 X61.450 Y24.073
G01 F400 X61.393 Y24.247
G01 F400 X61.301 Y24.407
G01 F400 X61.178 Y24.543
G01 F400 X61.029 Y24.651
G01 F400 X60.862 Y24.726
G01 F400 X60.682 Y24.764
G01 F400 X60.498 Y24.764
G00 Z3.000
G00  X57.958 Y24.764
G01 F750 Z0
G01 F400 Z-0.100
G01 F400 X57.778 Y24.726
G01 F400 X57.611 Y24.651
G01 F400 X57.462 Y24.543
G01 F400 X57.339 Y24.407
G01 F400 X57.247 Y24.247
G01 F400 X57.190 Y24.073
G01 F400 X57.171 Y23.890
G01 F400 X57.190 Y23.707
G01 F400 X57.247 Y23.533
G01 F400 X57.339 Y23.373
G01 F400 X57.462 Y23.237
G01 F400 X57.611 Y23.129
G01 F400 X57.778 Y23.054
G01 F400 X57.958 Y23.016
G01 F400 X58.142 Y23.016
G01 F400 X58.322 Y23.054
G01 F400 X58.489 Y23.129
G01 F400 X58.638 Y23.237
G01 F400 X58.761 Y23.373
G01 F400 X58.853 Y23.533
G01 F400 X58.910 Y23.707
G01 F400 X58.929 Y23.890
G01 F400 X58.910 Y24.073
G01 F400 X58.853 Y24.247
G01 F400 X58.761 Y24.407
G01 F400 X58.638 Y24.543
G01 F400 X58.489 Y24.651
G01 F400 X58.322 Y24.726
G01 F400 X58.142 Y24.764
G01 F400 X57.958 Y24.764
G00 Z3.000
G00  X17.318 Y24.764
G01 F750 Z0
G01 F400 Z-0.100
G01 F400 X17.138 Y24.726
G01 F400 X16.971 Y24.651
G01 F400 X16.822 Y24.543
G01 F400 X16.699 Y24.407
G01 F400 X16.607 Y24.247
G01 F400 X16.550 Y24.073
G01 F400 X16.531 Y23.890
G01 F400 X16.550 Y23.707
G01 F400 X16.607 Y23.533
G01 F400 X16.699 Y23.373
G01 F400 X16.822 Y23.237
G01 F400 X16.971 Y23.129
G01 F400 X17.138 Y23.054
G01 F400 X17.318 Y23.016
G01 F400 X17.502 Y23.016
G01 F400 X17.682 Y23.054
G01 F400 X17.849 Y23.129
G01 F400 X17.998 Y23.237
G01 F400 X18.121 Y23.373
G01 F400 X18.213 Y23.533
G01 F400 X18.270 Y23.707
G01 F400 X18.289 Y23.890
G01 F400 X18.270 Y24.073
G01 F400 X18.213 Y24.247
G01 F400 X18.121 Y24.407
G01 F400 X17.998 Y24.543
G01 F400 X17.849 Y24.651
G01 F400 X17.682 Y24.726
G01 F400 X17.502 Y24.764
G01 F400 X17.318 Y24.764
G00 Z3.000
G00  X14.778 Y24.764
G01 F750 Z0
G01 F400 Z-0.100
G01 F400 X14.598 Y24.726
G01 F400 X14.431 Y24.651
G01 F400 X14.282 Y24.543
G01 F400 X14.159 Y24.407
G01 F400 X14.067 Y24.247
G01 F400 X14.010 Y24.073
G01 F400 X13.991 Y23.890
G01 F400 X14.010 Y23.707
G01 F400 X14.067 Y23.533
G01 F400 X14.159 Y23.373
G01 F400 X14.282 Y23.237
G01 F400 X14.431 Y23.129
G01 F400 X14.598 Y23.054
G01 F400 X14.778 Y23.016
G01 F400 X14.962 Y23.016
G01 F400 X15.142 Y23.054
G01 F400 X15.309 Y23.129
G01 F400 X15.458 Y23.237
G01 F400 X15.581 Y23.373
G01 F400 X15.673 Y23.533
G01 F400 X15.730 Y23.707
G01 F400 X15.749 Y23.890
G01 F400 X15.730 Y24.073
G01 F400 X15.673 Y24.247
G01 F400 X15.581 Y24.407
G01 F400 X15.458 Y24.543
G01 F400 X15.309 Y24.651
G01 F400 X15.142 Y24.726
G01 F400 X14.962 Y24.764
G01 F400 X14.778 Y24.764
G00 Z3.000
G00  X22.398 Y24.764
G01 F750 Z0
G01 F400 Z-0.100
G01 F400 X22.218 Y24.726
G01 F400 X22.051 Y24.651
G01 F400 X21.902 Y24.543
G01 F400 X21.779 Y24.407
G01 F400 X21.687 Y24.247
G01 F400 X21.630 Y24.073
G01 F400 X21.611 Y23.890
G01 F400 X21.630 Y23.707
G01 F400 X21.687 Y23.533
G01 F400 X21.779 Y23.373
G01 F400 X21.902 Y23.237
G01 F400 X22.051 Y23.129
G01 F400 X22.218 Y23.054
G01 F400 X22.398 Y23.016
G01 F400 X22.582 Y23.016
G01 F400 X22.762 Y23.054
G01 F400 X22.929 Y23.129
G01 F400 X23.078 Y23.237
G01 F400 X23.201 Y23.373
G01 F400 X23.293 Y23.533
G01 F400 X23.350 Y23.707
G01 F400 X23.369 Y23.890
G01 F400 X23.350 Y24.073
G01 F400 X23.293 Y24.247
G01 F400 X23.201 Y24.407
G01 F400 X23.078 Y24.543
G01 F400 X22.929 Y24.651
G01 F400 X22.762 Y24.726
G01 F400 X22.582 Y24.764
G01 F400 X22.398 Y24.764
G00 Z3.000
G00  X19.858 Y24.764
G01 F750 Z0
G01 F400 Z-0.100
G01 F400 X19.678 Y24.726
G01 F400 X19.511 Y24.651
G01 F400 X19.362 Y24.543
G01 F400 X19.239 Y24.407
G01 F400 X19.147 Y24.247
G01 F400 X19.090 Y24.073
G01 F400 X19.071 Y23.890
G01 F400 X19.090 Y23.707
G01 F400 X19.147 Y23.533
G01 F400 X19.239 Y23.373
G01 F400 X19.362 Y23.237
G01 F400 X19.511 Y23.129
G01 F400 X19.678 Y23.054
G01 F400 X19.858 Y23.016
G01 F400 X20.042 Y23.016
G01 F400 X20.222 Y23.054
G01 F400 X20.389 Y23.129
G01 F400 X20.538 Y23.237
G01 F400 X20.661 Y23.373
G01 F400 X20.753 Y23.533
G01 F400 X20.810 Y23.707
G01 F400 X20.829 Y23.890
G01 F400 X20.810 Y24.073
G01 F400 X20.753 Y24.247
G01 F400 X20.661 Y24.407
G01 F400 X20.538 Y24.543
G01 F400 X20.389 Y24.651
G01 F400 X20.222 Y24.726
G01 F400 X20.042 Y24.764
G01 F400 X19.858 Y24.764
G00 Z3.000
G00  X15.008 Y18.414
G01 F750 Z0
G01 F400 Z-0.100
G01 F400 X14.828 Y18.376
G01 F400 X14.661 Y18.301
G01 F400 X14.512 Y18.193
G01 F400 X14.389 Y18.056
G01 F400 X14.297 Y17.897
G01 F400 X14.240 Y17.723
G01 F400 X14.221 Y17.540
G01 F400 X14.240 Y17.357
G01 F400 X14.297 Y17.183
G01 F400 X14.389 Y17.024
G01 F400 X14.512 Y16.887
G01 F400 X14.661 Y16.779
G01 F400 X14.828 Y16.704
G01 F400 X15.008 Y16.666
G01 F400 X15.192 Y16.666
G01 F400 X15.372 Y16.704
G01 F400 X15.539 Y16.779
G01 F400 X15.688 Y16.887
G01 F400 X15.811 Y17.024
G01 F400 X15.903 Y17.183
G01 F400 X15.960 Y17.357
G01 F400 X15.979 Y17.540
G01 F400 X15.960 Y17.723
G01 F400 X15.903 Y17.897
G01 F400 X15.811 Y18.056
G01 F400 X15.688 Y18.193
G01 F400 X15.539 Y18.301
G01 F400 X15.372 Y18.376
G01 F400 X15.192 Y18.414
G01 F400 X15.008 Y18.414
G00 Z3.000
G00  X15.008 Y15.874
G01 F750 Z0
G01 F400 Z-0.100
G01 F400 X14.828 Y15.836
G01 F400 X14.661 Y15.761
G01 F400 X14.512 Y15.653
G01 F400 X14.389 Y15.517
G01 F400 X14.297 Y15.357
G01 F400 X14.240 Y15.183
G01 F400 X14.221 Y15.000
G01 F400 X14.240 Y14.817
G01 F400 X14.297 Y14.643
G01 F400 X14.389 Y14.484
G01 F400 X14.512 Y14.347
G01 F400 X14.661 Y14.239
G01 F400 X14.828 Y14.164
G01 F400 X15.008 Y14.126
G01 F400 X15.192 Y14.126
G01 F400 X15.372 Y14.164
G01 F400 X15.539 Y14.239
G01 F400 X15.688 Y14.347
G01 F400 X15.811 Y14.484
G01 F400 X15.903 Y14.643
G01 F400 X15.960 Y14.817
G01 F400 X15.979 Y15.000
G01 F400 X15.960 Y15.183
G01 F400 X15.903 Y15.357
G01 F400 X15.811 Y15.517
G01 F400 X15.688 Y15.653
G01 F400 X15.539 Y15.761
G01 F400 X15.372 Y15.836
G01 F400 X15.192 Y15.874
G01 F400 X15.008 Y15.874
G00 Z3.000
G00  X15.008 Y13.334
G01 F750 Z0
G01 F400 Z-0.100
G01 F400 X14.828 Y13.296
G01 F400 X14.661 Y13.221
G01 F400 X14.512 Y13.113
G01 F400 X14.389 Y12.977
G01 F400 X14.297 Y12.817
G01 F400 X14.240 Y12.643
G01 F400 X14.221 Y12.460
G01 F400 X14.240 Y12.277
G01 F400 X14.297 Y12.103
G01 F400 X14.389 Y11.944
G01 F400 X14.512 Y11.807
G01 F400 X14.661 Y11.699
G01 F400 X14.828 Y11.624
G01 F400 X15.008 Y11.586
G01 F400 X15.192 Y11.586
G01 F400 X15.372 Y11.624
G01 F400 X15.539 Y11.699
G01 F400 X15.688 Y11.807
G01 F400 X15.811 Y11.944
G01 F400 X15.903 Y12.103
G01 F400 X15.960 Y12.277
G01 F400 X15.979 Y12.460
G01 F400 X15.960 Y12.643
G01 F400 X15.903 Y12.817
G01 F400 X15.811 Y12.977
G01 F400 X15.688 Y13.113
G01 F400 X15.539 Y13.221
G01 F400 X15.372 Y13.296
G01 F400 X15.192 Y13.334
G01 F400 X15.008 Y13.334
G00 Z3.000
G00  X30.018 Y6.984
G01 F750 Z0
G01 F400 Z-0.100
G01 F400 X29.838 Y6.946
G01 F400 X29.671 Y6.871
G01 F400 X29.522 Y6.763
G01 F400 X29.399 Y6.627
G01 F400 X29.307 Y6.467
G01 F400 X29.250 Y6.293
G01 F400 X29.231 Y6.110
G01 F400 X29.250 Y5.927
G01 F400 X29.307 Y5.753
G01 F400 X29.399 Y5.594
G01 F400 X29.522 Y5.457
G01 F400 X29.671 Y5.349
G01 F400 X29.838 Y5.274
G01 F400 X30.018 Y5.236
G01 F400 X30.202 Y5.236
G01 F400 X30.382 Y5.274
G01 F400 X30.549 Y5.349
G01 F400 X30.698 Y5.457
G01 F400 X30.821 Y5.594
G01 F400 X30.913 Y5.753
G01 F400 X30.970 Y5.927
G01 F400 X30.989 Y6.110
G01 F400 X30.970 Y6.293
G01 F400 X30.913 Y6.467
G01 F400 X30.821 Y6.627
G01 F400 X30.698 Y6.763
G01 F400 X30.549 Y6.871
G01 F400 X30.382 Y6.946
G01 F400 X30.202 Y6.984
G01 F400 X30.018 Y6.984
G00 Z3.000
G00  X32.558 Y6.984
G01 F750 Z0
G01 F400 Z-0.100
G01 F400 X32.378 Y6.946
G01 F400 X32.211 Y6.871
G01 F400 X32.062 Y6.763
G01 F400 X31.939 Y6.627
G01 F400 X31.847 Y6.467
G01 F400 X31.790 Y6.293
G01 F400 X31.771 Y6.110
G01 F400 X31.790 Y5.927
G01 F400 X31.847 Y5.753
G01 F400 X31.939 Y5.594
G01 F400 X32.062 Y5.457
G01 F400 X32.211 Y5.349
G01 F400 X32.378 Y5.274
G01 F400 X32.558 Y5.236
G01 F400 X32.742 Y5.236
G01 F400 X32.922 Y5.274
G01 F400 X33.089 Y5.349
G01 F400 X33.238 Y5.457
G01 F400 X33.361 Y5.594
G01 F400 X33.453 Y5.753
G01 F400 X33.510 Y5.927
G01 F400 X33.529 Y6.110
G01 F400 X33.510 Y6.293
G01 F400 X33.453 Y6.467
G01 F400 X33.361 Y6.627
G01 F400 X33.238 Y6.763
G01 F400 X33.089 Y6.871
G01 F400 X32.922 Y6.946
G01 F400 X32.742 Y6.984
G01 F400 X32.558 Y6.984
G00 Z3.000
G00  X24.938 Y6.984
G01 F750 Z0
G01 F400 Z-0.100
G01 F400 X24.758 Y6.946
G01 F400 X24.591 Y6.871
G01 F400 X24.442 Y6.763
G01 F400 X24.319 Y6.627
G01 F400 X24.227 Y6.467
G01 F400 X24.170 Y6.293
G01 F400 X24.151 Y6.110
G01 F400 X24.170 Y5.927
G01 F400 X24.227 Y5.753
G01 F400 X24.319 Y5.594
G01 F400 X24.442 Y5.457
G01 F400 X24.591 Y5.349
G01 F400 X24.758 Y5.274
G01 F400 X24.938 Y5.236
G01 F400 X25.122 Y5.236
G01 F400 X25.302 Y5.274
G01 F400 X25.469 Y5.349
G01 F400 X25.618 Y5.457
G01 F400 X25.741 Y5.594
G01 F400 X25.833 Y5.753
G01 F400 X25.890 Y5.927
G01 F400 X25.909 Y6.110
G01 F400 X25.890 Y6.293
G01 F400 X25.833 Y6.467
G01 F400 X25.741 Y6.627
G01 F400 X25.618 Y6.763
G01 F400 X25.469 Y6.871
G01 F400 X25.302 Y6.946
G01 F400 X25.122 Y6.984
G01 F400 X24.938 Y6.984
G00 Z3.000
G00  X27.478 Y6.984
G01 F750 Z0
G01 F400 Z-0.100
G01 F400 X27.298 Y6.946
G01 F400 X27.131 Y6.871
G01 F400 X26.982 Y6.763
G01 F400 X26.859 Y6.627
G01 F400 X26.767 Y6.467
G01 F400 X26.710 Y6.293
G01 F400 X26.691 Y6.110
G01 F400 X26.710 Y5.927
G01 F400 X26.767 Y5.753
G01 F400 X26.859 Y5.594
G01 F400 X26.982 Y5.457
G01 F400 X27.131 Y5.349
G01 F400 X27.298 Y5.274
G01 F400 X27.478 Y5.236
G01 F400 X27.662 Y5.236
G01 F400 X27.842 Y5.274
G01 F400 X28.009 Y5.349
G01 F400 X28.158 Y5.457
G01 F400 X28.281 Y5.594
G01 F400 X28.373 Y5.753
G01 F400 X28.430 Y5.927
G01 F400 X28.449 Y6.110
G01 F400 X28.430 Y6.293
G01 F400 X28.373 Y6.467
G01 F400 X28.281 Y6.627
G01 F400 X28.158 Y6.763
G01 F400 X28.009 Y6.871
G01 F400 X27.842 Y6.946
G01 F400 X27.662 Y6.984
G01 F400 X27.478 Y6.984
G00 Z3.000
G00  X40.178 Y6.984
G01 F750 Z0
G01 F400 Z-0.100
G01 F400 X39.998 Y6.946
G01 F400 X39.831 Y6.871
G01 F400 X39.682 Y6.763
G01 F400 X39.559 Y6.627
G01 F400 X39.467 Y6.467
G01 F400 X39.410 Y6.293
G01 F400 X39.391 Y6.110
G01 F400 X39.410 Y5.927
G01 F400 X39.467 Y5.753
G01 F400 X39.559 Y5.594
G01 F400 X39.682 Y5.457
G01 F400 X39.831 Y5.349
G01 F400 X39.998 Y5.274
G01 F400 X40.178 Y5.236
G01 F400 X40.362 Y5.236
G01 F400 X40.542 Y5.274
G01 F400 X40.709 Y5.349
G01 F400 X40.858 Y5.457
G01 F400 X40.981 Y5.594
G01 F400 X41.073 Y5.753
G01 F400 X41.130 Y5.927
G01 F400 X41.149 Y6.110
G01 F400 X41.130 Y6.293
G01 F400 X41.073 Y6.467
G01 F400 X40.981 Y6.627
G01 F400 X40.858 Y6.763
G01 F400 X40.709 Y6.871
G01 F400 X40.542 Y6.946
G01 F400 X40.362 Y6.984
G01 F400 X40.178 Y6.984
G00 Z3.000
G00  X42.718 Y6.984
G01 F750 Z0
G01 F400 Z-0.100
G01 F400 X42.538 Y6.946
G01 F400 X42.371 Y6.871
G01 F400 X42.222 Y6.763
G01 F400 X42.099 Y6.627
G01 F400 X42.007 Y6.467
G01 F400 X41.950 Y6.293
G01 F400 X41.931 Y6.110
G01 F400 X41.950 Y5.927
G01 F400 X42.007 Y5.753
G01 F400 X42.099 Y5.594
G01 F400 X42.222 Y5.457
G01 F400 X42.371 Y5.349
G01 F400 X42.538 Y5.274
G01 F400 X42.718 Y5.236
G01 F400 X42.902 Y5.236
G01 F400 X43.082 Y5.274
G01 F400 X43.249 Y5.349
G01 F400 X43.398 Y5.457
G01 F400 X43.521 Y5.594
G01 F400 X43.613 Y5.753
G01 F400 X43.670 Y5.927
G01 F400 X43.689 Y6.110
G01 F400 X43.670 Y6.293
G01 F400 X43.613 Y6.467
G01 F400 X43.521 Y6.627
G01 F400 X43.398 Y6.763
G01 F400 X43.249 Y6.871
G01 F400 X43.082 Y6.946
G01 F400 X42.902 Y6.984
G01 F400 X42.718 Y6.984
G00 Z3.000
G00  X35.098 Y6.984
G01 F750 Z0
G01 F400 Z-0.100
G01 F400 X34.918 Y6.946
G01 F400 X34.751 Y6.871
G01 F400 X34.602 Y6.763
G01 F400 X34.479 Y6.627
G01 F400 X34.387 Y6.467
G01 F400 X34.330 Y6.293
G01 F400 X34.311 Y6.110
G01 F400 X34.330 Y5.927
G01 F400 X34.387 Y5.753
G01 F400 X34.479 Y5.594
G01 F400 X34.602 Y5.457
G01 F400 X34.751 Y5.349
G01 F400 X34.918 Y5.274
G01 F400 X35.098 Y5.236
G01 F400 X35.282 Y5.236
G01 F400 X35.462 Y5.274
G01 F400 X35.629 Y5.349
G01 F400 X35.778 Y5.457
G01 F400 X35.901 Y5.594
G01 F400 X35.993 Y5.753
G01 F400 X36.050 Y5.927
G01 F400 X36.069 Y6.110
G01 F400 X36.050 Y6.293
G01 F400 X35.993 Y6.467
G01 F400 X35.901 Y6.627
G01 F400 X35.778 Y6.763
G01 F400 X35.629 Y6.871
G01 F400 X35.462 Y6.946
G01 F400 X35.282 Y6.984
G01 F400 X35.098 Y6.984
G00 Z3.000
G00  X37.638 Y6.984
G01 F750 Z0
G01 F400 Z-0.100
G01 F400 X37.458 Y6.946
G01 F400 X37.291 Y6.871
G01 F400 X37.142 Y6.763
G01 F400 X37.019 Y6.627
G01 F400 X36.927 Y6.467
G01 F400 X36.870 Y6.293
G01 F400 X36.851 Y6.110
G01 F400 X36.870 Y5.927
G01 F400 X36.927 Y5.753
G01 F400 X37.019 Y5.594
G01 F400 X37.142 Y5.457
G01 F400 X37.291 Y5.349
G01 F400 X37.458 Y5.274
G01 F400 X37.638 Y5.236
G01 F400 X37.822 Y5.236
G01 F400 X38.002 Y5.274
G01 F400 X38.169 Y5.349
G01 F400 X38.318 Y5.457
G01 F400 X38.441 Y5.594
G01 F400 X38.533 Y5.753
G01 F400 X38.590 Y5.927
G01 F400 X38.609 Y6.110
G01 F400 X38.590 Y6.293
G01 F400 X38.533 Y6.467
G01 F400 X38.441 Y6.627
G01 F400 X38.318 Y6.763
G01 F400 X38.169 Y6.871
G01 F400 X38.002 Y6.946
G01 F400 X37.822 Y6.984
G01 F400 X37.638 Y6.984
G00 Z3.000
G00  X19.858 Y6.984
G01 F750 Z0
G01 F400 Z-0.100
G01 F400 X19.678 Y6.946
G01 F400 X19.511 Y6.871
G01 F400 X19.362 Y6.763
G01 F400 X19.239 Y6.627
G01 F400 X19.147 Y6.467
G01 F400 X19.090 Y6.293
G01 F400 X19.071 Y6.110
G01 F400 X19.090 Y5.927
G01 F400 X19.147 Y5.753
G01 F400 X19.239 Y5.594
G01 F400 X19.362 Y5.457
G01 F400 X19.511 Y5.349
G01 F400 X19.678 Y5.274
G01 F400 X19.858 Y5.236
G01 F400 X20.042 Y5.236
G01 F400 X20.222 Y5.274
G01 F400 X20.389 Y5.349
G01 F400 X20.538 Y5.457
G01 F400 X20.661 Y5.594
G01 F400 X20.753 Y5.753
G01 F400 X20.810 Y5.927
G01 F400 X20.829 Y6.110
G01 F400 X20.810 Y6.293
G01 F400 X20.753 Y6.467
G01 F400 X20.661 Y6.627
G01 F400 X20.538 Y6.763
G01 F400 X20.389 Y6.871
G01 F400 X20.222 Y6.946
G01 F400 X20.042 Y6.984
G01 F400 X19.858 Y6.984
G00 Z3.000
G00  X22.398 Y6.984
G01 F750 Z0
G01 F400 Z-0.100
G01 F400 X22.218 Y6.946
G01 F400 X22.051 Y6.871
G01 F400 X21.902 Y6.763
G01 F400 X21.779 Y6.627
G01 F400 X21.687 Y6.467
G01 F400 X21.630 Y6.293
G01 F400 X21.611 Y6.110
G01 F400 X21.630 Y5.927
G01 F400 X21.687 Y5.753
G01 F400 X21.779 Y5.594
G01 F400 X21.902 Y5.457
G01 F400 X22.051 Y5.349
G01 F400 X22.218 Y5.274
G01 F400 X22.398 Y5.236
G01 F400 X22.582 Y5.236
G01 F400 X22.762 Y5.274
G01 F400 X22.929 Y5.349
G01 F400 X23.078 Y5.457
G01 F400 X23.201 Y5.594
G01 F400 X23.293 Y5.753
G01 F400 X23.350 Y5.927
G01 F400 X23.369 Y6.110
G01 F400 X23.350 Y6.293
G01 F400 X23.293 Y6.467
G01 F400 X23.201 Y6.627
G01 F400 X23.078 Y6.763
G01 F400 X22.929 Y6.871
G01 F400 X22.762 Y6.946
G01 F400 X22.582 Y6.984
G01 F400 X22.398 Y6.984
G00 Z3.000
G00  X14.778 Y6.984
G01 F750 Z0
G01 F400 Z-0.100
G01 F400 X14.598 Y6.946
G01 F400 X14.431 Y6.871
G01 F400 X14.282 Y6.763
G01 F400 X14.159 Y6.627
G01 F400 X14.067 Y6.467
G01 F400 X14.010 Y6.293
G01 F400 X13.991 Y6.110
G01 F400 X14.010 Y5.927
G01 F400 X14.067 Y5.753
G01 F400 X14.159 Y5.594
G01 F400 X14.282 Y5.457
G01 F400 X14.431 Y5.349
G01 F400 X14.598 Y5.274
G01 F400 X14.778 Y5.236
G01 F400 X14.962 Y5.236
G01 F400 X15.142 Y5.274
G01 F400 X15.309 Y5.349
G01 F400 X15.458 Y5.457
G01 F400 X15.581 Y5.594
G01 F400 X15.673 Y5.753
G01 F400 X15.730 Y5.927
G01 F400 X15.749 Y6.110
G01 F400 X15.730 Y6.293
G01 F400 X15.673 Y6.467
G01 F400 X15.581 Y6.627
G01 F400 X15.458 Y6.763
G01 F400 X15.309 Y6.871
G01 F400 X15.142 Y6.946
G01 F400 X14.962 Y6.984
G01 F400 X14.778 Y6.984
G00 Z3.000
G00  X17.318 Y6.984
G01 F750 Z0
G01 F400 Z-0.100
G01 F400 X17.138 Y6.946
G01 F400 X16.971 Y6.871
G01 F400 X16.822 Y6.763
G01 F400 X16.699 Y6.627
G01 F400 X16.607 Y6.467
G01 F400 X16.550 Y6.293
G01 F400 X16.531 Y6.110
G01 F400 X16.550 Y5.927
G01 F400 X16.607 Y5.753
G01 F400 X16.699 Y5.594
G01 F400 X16.822 Y5.457
G01 F400 X16.971 Y5.349
G01 F400 X17.138 Y5.274
G01 F400 X17.318 Y5.236
G01 F400 X17.502 Y5.236
G01 F400 X17.682 Y5.274
G01 F400 X17.849 Y5.349
G01 F400 X17.998 Y5.457
G01 F400 X18.121 Y5.594
G01 F400 X18.213 Y5.753
G01 F400 X18.270 Y5.927
G01 F400 X18.289 Y6.110
G01 F400 X18.270 Y6.293
G01 F400 X18.213 Y6.467
G01 F400 X18.121 Y6.627
G01 F400 X17.998 Y6.763
G01 F400 X17.849 Y6.871
G01 F400 X17.682 Y6.946
G01 F400 X17.502 Y6.984
G01 F400 X17.318 Y6.984
G00 Z3.000
G00  X50.338 Y6.984
G01 F750 Z0
G01 F400 Z-0.100
G01 F400 X50.158 Y6.946
G01 F400 X49.991 Y6.871
G01 F400 X49.842 Y6.763
G01 F400 X49.719 Y6.627
G01 F400 X49.627 Y6.467
G01 F400 X49.570 Y6.293
G01 F400 X49.551 Y6.110
G01 F400 X49.570 Y5.927
G01 F400 X49.627 Y5.753
G01 F400 X49.719 Y5.594
G01 F400 X49.842 Y5.457
G01 F400 X49.991 Y5.349
G01 F400 X50.158 Y5.274
G01 F400 X50.338 Y5.236
G01 F400 X50.522 Y5.236
G01 F400 X50.702 Y5.274
G01 F400 X50.869 Y5.349
G01 F400 X51.018 Y5.457
G01 F400 X51.141 Y5.594
G01 F400 X51.233 Y5.753
G01 F400 X51.290 Y5.927
G01 F400 X51.309 Y6.110
G01 F400 X51.290 Y6.293
G01 F400 X51.233 Y6.467
G01 F400 X51.141 Y6.627
G01 F400 X51.018 Y6.763
G01 F400 X50.869 Y6.871
G01 F400 X50.702 Y6.946
G01 F400 X50.522 Y6.984
G01 F400 X50.338 Y6.984
G00 Z3.000
G00  X45.258 Y6.984
G01 F750 Z0
G01 F400 Z-0.100
G01 F400 X45.078 Y6.946
G01 F400 X44.911 Y6.871
G01 F400 X44.762 Y6.763
G01 F400 X44.639 Y6.627
G01 F400 X44.547 Y6.467
G01 F400 X44.490 Y6.293
G01 F400 X44.471 Y6.110
G01 F400 X44.490 Y5.927
G01 F400 X44.547 Y5.753
G01 F400 X44.639 Y5.594
G01 F400 X44.762 Y5.457
G01 F400 X44.911 Y5.349
G01 F400 X45.078 Y5.274
G01 F400 X45.258 Y5.236
G01 F400 X45.442 Y5.236
G01 F400 X45.622 Y5.274
G01 F400 X45.789 Y5.349
G01 F400 X45.938 Y5.457
G01 F400 X46.061 Y5.594
G01 F400 X46.153 Y5.753
G01 F400 X46.210 Y5.927
G01 F400 X46.229 Y6.110
G01 F400 X46.210 Y6.293
G01 F400 X46.153 Y6.467
G01 F400 X46.061 Y6.627
G01 F400 X45.938 Y6.763
G01 F400 X45.789 Y6.871
G01 F400 X45.622 Y6.946
G01 F400 X45.442 Y6.984
G01 F400 X45.258 Y6.984
G00 Z3.000
G00  X47.798 Y6.984
G01 F750 Z0
G01 F400 Z-0.100
G01 F400 X47.618 Y6.946
G01 F400 X47.451 Y6.871
G01 F400 X47.302 Y6.763
G01 F400 X47.179 Y6.627
G01 F400 X47.087 Y6.467
G01 F400 X47.030 Y6.293
G01 F400 X47.011 Y6.110
G01 F400 X47.030 Y5.927
G01 F400 X47.087 Y5.753
G01 F400 X47.179 Y5.594
G01 F400 X47.302 Y5.457
G01 F400 X47.451 Y5.349
G01 F400 X47.618 Y5.274
G01 F400 X47.798 Y5.236
G01 F400 X47.982 Y5.236
G01 F400 X48.162 Y5.274
G01 F400 X48.329 Y5.349
G01 F400 X48.478 Y5.457
G01 F400 X48.601 Y5.594
G01 F400 X48.693 Y5.753
G01 F400 X48.750 Y5.927
G01 F400 X48.769 Y6.110
G01 F400 X48.750 Y6.293
G01 F400 X48.693 Y6.467
G01 F400 X48.601 Y6.627
G01 F400 X48.478 Y6.763
G01 F400 X48.329 Y6.871
G01 F400 X48.162 Y6.946
G01 F400 X47.982 Y6.984
G01 F400 X47.798 Y6.984
G00 Z3.000
G00  X60.498 Y6.984
G01 F750 Z0
G01 F400 Z-0.100
G01 F400 X60.318 Y6.946
G01 F400 X60.151 Y6.871
G01 F400 X60.002 Y6.763
G01 F400 X59.879 Y6.627
G01 F400 X59.787 Y6.467
G01 F400 X59.730 Y6.293
G01 F400 X59.711 Y6.110
G01 F400 X59.730 Y5.927
G01 F400 X59.787 Y5.753
G01 F400 X59.879 Y5.594
G01 F400 X60.002 Y5.457
G01 F400 X60.151 Y5.349
G01 F400 X60.318 Y5.274
G01 F400 X60.498 Y5.236
G01 F400 X60.682 Y5.236
G01 F400 X60.862 Y5.274
G01 F400 X61.029 Y5.349
G01 F400 X61.178 Y5.457
G01 F400 X61.301 Y5.594
G01 F400 X61.393 Y5.753
G01 F400 X61.450 Y5.927
G01 F400 X61.469 Y6.110
G01 F400 X61.450 Y6.293
G01 F400 X61.393 Y6.467
G01 F400 X61.301 Y6.627
G01 F400 X61.178 Y6.763
G01 F400 X61.029 Y6.871
G01 F400 X60.862 Y6.946
G01 F400 X60.682 Y6.984
G01 F400 X60.498 Y6.984
G00 Z3.000
G00  X63.038 Y6.984
G01 F750 Z0
G01 F400 Z-0.100
G01 F400 X62.858 Y6.946
G01 F400 X62.691 Y6.871
G01 F400 X62.542 Y6.763
G01 F400 X62.419 Y6.627
G01 F400 X62.327 Y6.467
G01 F400 X62.270 Y6.293
G01 F400 X62.251 Y6.110
G01 F400 X62.270 Y5.927
G01 F400 X62.327 Y5.753
G01 F400 X62.419 Y5.594
G01 F400 X62.542 Y5.457
G01 F400 X62.691 Y5.349
G01 F400 X62.858 Y5.274
G01 F400 X63.038 Y5.236
G01 F400 X63.222 Y5.236
G01 F400 X63.402 Y5.274
G01 F400 X63.569 Y5.349
G01 F400 X63.718 Y5.457
G01 F400 X63.841 Y5.594
G01 F400 X63.933 Y5.753
G01 F400 X63.990 Y5.927
G01 F400 X64.009 Y6.110
G01 F400 X63.990 Y6.293
G01 F400 X63.933 Y6.467
G01 F400 X63.841 Y6.627
G01 F400 X63.718 Y6.763
G01 F400 X63.569 Y6.871
G01 F400 X63.402 Y6.946
G01 F400 X63.222 Y6.984
G01 F400 X63.038 Y6.984
G00 Z3.000
G00  X55.418 Y6.984
G01 F750 Z0
G01 F400 Z-0.100
G01 F400 X55.238 Y6.946
G01 F400 X55.071 Y6.871
G01 F400 X54.922 Y6.763
G01 F400 X54.799 Y6.627
G01 F400 X54.707 Y6.467
G01 F400 X54.650 Y6.293
G01 F400 X54.631 Y6.110
G01 F400 X54.650 Y5.927
G01 F400 X54.707 Y5.753
G01 F400 X54.799 Y5.594
G01 F400 X54.922 Y5.457
G01 F400 X55.071 Y5.349
G01 F400 X55.238 Y5.274
G01 F400 X55.418 Y5.236
G01 F400 X55.602 Y5.236
G01 F400 X55.782 Y5.274
G01 F400 X55.949 Y5.349
G01 F400 X56.098 Y5.457
G01 F400 X56.221 Y5.594
G01 F400 X56.313 Y5.753
G01 F400 X56.370 Y5.927
G01 F400 X56.389 Y6.110
G01 F400 X56.370 Y6.293
G01 F400 X56.313 Y6.467
G01 F400 X56.221 Y6.627
G01 F400 X56.098 Y6.763
G01 F400 X55.949 Y6.871
G01 F400 X55.782 Y6.946
G01 F400 X55.602 Y6.984
G01 F400 X55.418 Y6.984
G00 Z3.000
G00  X57.958 Y6.984
G01 F750 Z0
G01 F400 Z-0.100
G01 F400 X57.778 Y6.946
G01 F400 X57.611 Y6.871
G01 F400 X57.462 Y6.763
G01 F400 X57.339 Y6.627
G01 F400 X57.247 Y6.467
G01 F400 X57.190 Y6.293
G01 F400 X57.171 Y6.110
G01 F400 X57.190 Y5.927
G01 F400 X57.247 Y5.753
G01 F400 X57.339 Y5.594
G01 F400 X57.462 Y5.457
G01 F400 X57.611 Y5.349
G01 F400 X57.778 Y5.274
G01 F400 X57.958 Y5.236
G01 F400 X58.142 Y5.236
G01 F400 X58.322 Y5.274
G01 F400 X58.489 Y5.349
G01 F400 X58.638 Y5.457
G01 F400 X58.761 Y5.594
G01 F400 X58.853 Y5.753
G01 F400 X58.910 Y5.927
G01 F400 X58.929 Y6.110
G01 F400 X58.910 Y6.293
G01 F400 X58.853 Y6.467
G01 F400 X58.761 Y6.627
G01 F400 X58.638 Y6.763
G01 F400 X58.489 Y6.871
G01 F400 X58.322 Y6.946
G01 F400 X58.142 Y6.984
G01 F400 X57.958 Y6.984
G00 Z3.000
G00  X16.442 Y64.050
G01 F750 Z0
G01 F400 Z-0.100
G01 F400 X16.329 Y64.026
G01 F400 X16.224 Y63.979
G01 F400 X16.138 Y63.916
G01 F400 X9.112 Y56.890
G01 F400 X9.053 Y56.825
G01 F400 X8.995 Y56.725
G01 F400 X8.960 Y56.615
G01 F400 X8.949 Y56.518
G01 F400 X8.949 Y18.982
G01 F400 X8.960 Y18.885
G01 F400 X8.995 Y18.775
G01 F400 X9.053 Y18.675
G01 F400 X9.130 Y18.589
G01 F400 X9.224 Y18.521
G01 F400 X9.329 Y18.475
G01 F400 X9.442 Y18.450
G01 F400 X14.486 Y18.450
G01 F400 X14.362 Y18.360
G01 F400 X14.207 Y18.189
G01 F400 X14.092 Y17.989
G01 F400 X14.021 Y17.769
G01 F400 X13.997 Y17.540
G01 F400 X14.021 Y17.311
G01 F400 X14.092 Y17.091
G01 F400 X14.207 Y16.892
G01 F400 X14.362 Y16.720
G01 F400 X14.548 Y16.585
G01 F400 X14.759 Y16.491
G01 F400 X14.985 Y16.443
G01 F400 X15.215 Y16.443
G01 F400 X15.441 Y16.491
G01 F400 X15.652 Y16.585
G01 F400 X15.838 Y16.720
G01 F400 X15.993 Y16.892
G01 F400 X16.108 Y17.091
G01 F400 X16.179 Y17.311
G01 F400 X16.203 Y17.540
G01 F400 X16.179 Y17.769
G01 F400 X16.108 Y17.989
G01 F400 X15.993 Y18.189
G01 F400 X15.838 Y18.360
G01 F400 X15.714 Y18.450
G01 F400 X35.558 Y18.450
G01 F400 X35.671 Y18.475
G01 F400 X35.776 Y18.521
G01 F400 X35.862 Y18.584
G01 F400 X40.086 Y22.807
G01 F400 X40.155 Y22.793
G01 F400 X40.385 Y22.793
G01 F400 X40.611 Y22.841
G01 F400 X40.822 Y22.934
G01 F400 X41.008 Y23.070
G01 F400 X41.163 Y23.242
G01 F400 X41.278 Y23.441
G01 F400 X41.349 Y23.661
G01 F400 X41.373 Y23.890
G01 F400 X41.349 Y24.119
G01 F400 X41.278 Y24.339
G01 F400 X41.163 Y24.539
G01 F400 X41.008 Y24.710
G01 F400 X40.822 Y24.846
G01 F400 X40.611 Y24.939
G01 F400 X40.385 Y24.987
G01 F400 X40.155 Y24.987
G01 F400 X39.929 Y24.939
G01 F400 X39.718 Y24.846
G01 F400 X39.532 Y24.710
G01 F400 X39.377 Y24.539
G01 F400 X39.262 Y24.339
G01 F400 X39.191 Y24.119
G01 F400 X39.167 Y23.890
G01 F400 X39.191 Y23.661
G01 F400 X39.238 Y23.516
G01 F400 X35.271 Y19.550
G01 F400 X34.315 Y19.550
G01 F400 X34.362 Y19.584
G01 F400 X37.579 Y22.800
G01 F400 X37.615 Y22.793
G01 F400 X37.845 Y22.793
G01 F400 X38.071 Y22.841
G01 F400 X38.282 Y22.934
G01 F400 X38.468 Y23.070
G01 F400 X38.623 Y23.242
G01 F400 X38.738 Y23.441
G01 F400 X38.809 Y23.661
G01 F400 X38.833 Y23.890
G01 F400 X38.809 Y24.119
G01 F400 X38.738 Y24.339
G01 F400 X38.623 Y24.539
G01 F400 X38.468 Y24.710
G01 F400 X38.282 Y24.846
G01 F400 X38.071 Y24.939
G01 F400 X37.845 Y24.987
G01 F400 X37.615 Y24.987
G01 F400 X37.389 Y24.939
G01 F400 X37.178 Y24.846
G01 F400 X36.992 Y24.710
G01 F400 X36.837 Y24.539
G01 F400 X36.722 Y24.339
G01 F400 X36.651 Y24.119
G01 F400 X36.627 Y23.890
G01 F400 X36.651 Y23.661
G01 F400 X36.708 Y23.486
G01 F400 X33.771 Y20.550
G01 F400 X27.815 Y20.550
G01 F400 X27.862 Y20.584
G01 F400 X30.071 Y22.793
G01 F400 X30.225 Y22.793
G01 F400 X30.451 Y22.841
G01 F400 X30.662 Y22.934
G01 F400 X30.848 Y23.070
G01 F400 X31.003 Y23.242
G01 F400 X31.118 Y23.441
G01 F400 X31.189 Y23.661
G01 F400 X31.213 Y23.890
G01 F400 X31.189 Y24.119
G01 F400 X31.118 Y24.339
G01 F400 X31.003 Y24.539
G01 F400 X30.848 Y24.710
G01 F400 X30.662 Y24.846
G01 F400 X30.451 Y24.939
G01 F400 X30.225 Y24.987
G01 F400 X29.995 Y24.987
G01 F400 X29.769 Y24.939
G01 F400 X29.558 Y24.846
G01 F400 X29.372 Y24.710
G01 F400 X29.217 Y24.539
G01 F400 X29.102 Y24.339
G01 F400 X29.031 Y24.119
G01 F400 X29.007 Y23.890
G01 F400 X29.031 Y23.661
G01 F400 X29.102 Y23.441
G01 F400 X29.124 Y23.403
G01 F400 X27.271 Y21.550
G01 F400 X26.315 Y21.550
G01 F400 X26.362 Y21.584
G01 F400 X27.571 Y22.793
G01 F400 X27.685 Y22.793
G01 F400 X27.911 Y22.841
G01 F400 X28.122 Y22.934
G01 F400 X28.308 Y23.070
G01 F400 X28.463 Y23.242
G01 F400 X28.578 Y23.441
G01 F400 X28.649 Y23.661
G01 F400 X28.673 Y23.890
G01 F400 X28.649 Y24.119
G01 F400 X28.578 Y24.339
G01 F400 X28.463 Y24.539
G01 F400 X28.308 Y24.710
G01 F400 X28.122 Y24.846
G01 F400 X27.911 Y24.939
G01 F400 X27.685 Y24.987
G01 F400 X27.455 Y24.987
G01 F400 X27.229 Y24.939
G01 F400 X27.018 Y24.846
G01 F400 X26.832 Y24.710
G01 F400 X26.677 Y24.539
G01 F400 X26.562 Y24.339
G01 F400 X26.491 Y24.119
G01 F400 X26.467 Y23.890
G01 F400 X26.491 Y23.661
G01 F400 X26.562 Y23.441
G01 F400 X26.599 Y23.377
G01 F400 X25.771 Y22.550
G01 F400 X13.051 Y22.550
G01 F400 X13.051 Y51.679
G01 F400 X13.053 Y51.675
G01 F400 X13.112 Y51.610
G01 F400 X21.222 Y43.500
G01 F400 X17.767 Y40.045
G01 F400 X17.693 Y40.080
G01 F400 X17.359 Y40.151
G01 F400 X17.021 Y40.151
G01 F400 X16.690 Y40.080
G01 F400 X16.380 Y39.942
G01 F400 X16.106 Y39.743
G01 F400 X15.880 Y39.492
G01 F400 X15.711 Y39.199
G01 F400 X15.606 Y38.877
G01 F400 X15.571 Y38.540
G01 F400 X15.606 Y38.203
G01 F400 X15.711 Y37.881
G01 F400 X15.858 Y37.626
G01 F400 X15.749 Y37.626
G01 F400 X15.415 Y37.555
G01 F400 X15.102 Y37.416
G01 F400 X14.826 Y37.215
G01 F400 X14.597 Y36.961
G01 F400 X14.426 Y36.665
G01 F400 X14.321 Y36.340
G01 F400 X14.285 Y36.000
G01 F400 X14.321 Y35.660
G01 F400 X14.426 Y35.335
G01 F400 X14.597 Y35.039
G01 F400 X14.826 Y34.785
G01 F400 X15.102 Y34.584
G01 F400 X15.415 Y34.445
G01 F400 X15.749 Y34.374
G01 F400 X16.091 Y34.374
G01 F400 X16.425 Y34.445
G01 F400 X16.738 Y34.584
G01 F400 X17.014 Y34.785
G01 F400 X17.243 Y35.039
G01 F400 X17.414 Y35.335
G01 F400 X17.520 Y35.660
G01 F400 X17.555 Y36.000
G01 F400 X17.520 Y36.340
G01 F400 X17.414 Y36.665
G01 F400 X17.261 Y36.930
G01 F400 X17.359 Y36.930
G01 F400 X17.690 Y37.000
G01 F400 X18.000 Y37.138
G01 F400 X18.274 Y37.337
G01 F400 X18.500 Y37.588
G01 F400 X18.669 Y37.881
G01 F400 X18.774 Y38.203
G01 F400 X18.809 Y38.540
G01 F400 X18.774 Y38.877
G01 F400 X18.669 Y39.199
G01 F400 X18.599 Y39.321
G01 F400 X22.229 Y42.950
G01 F400 X34.449 Y42.950
G01 F400 X34.449 Y39.973
G01 F400 X34.380 Y39.942
G01 F400 X34.106 Y39.743
G01 F400 X33.880 Y39.492
G01 F400 X33.711 Y39.199
G01 F400 X33.606 Y38.877
G01 F400 X33.571 Y38.540
G01 F400 X33.606 Y38.203
G01 F400 X33.711 Y37.881
G01 F400 X33.858 Y37.626
G01 F400 X33.749 Y37.626
G01 F400 X33.415 Y37.555
G01 F400 X33.102 Y37.416
G01 F400 X32.826 Y37.215
G01 F400 X32.597 Y36.961
G01 F400 X32.426 Y36.665
G01 F400 X32.321 Y36.340
G01 F400 X32.285 Y36.000
G01 F400 X32.321 Y35.660
G01 F400 X32.426 Y35.335
G01 F400 X32.597 Y35.039
G01 F400 X32.826 Y34.785
G01 F400 X33.102 Y34.584
G01 F400 X33.415 Y34.445
G01 F400 X33.749 Y34.374
G01 F400 X34.091 Y34.374
G01 F400 X34.425 Y34.445
G01 F400 X34.738 Y34.584
G01 F400 X35.014 Y34.785
G01 F400 X35.243 Y35.039
G01 F400 X35.414 Y35.335
G01 F400 X35.520 Y35.660
G01 F400 X35.555 Y36.000
G01 F400 X35.520 Y36.340
G01 F400 X35.414 Y36.665
G01 F400 X35.261 Y36.930
G01 F400 X35.359 Y36.930
G01 F400 X35.690 Y37.000
G01 F400 X36.000 Y37.138
G01 F400 X36.274 Y37.337
G01 F400 X36.500 Y37.588
G01 F400 X36.669 Y37.881
G01 F400 X36.705 Y37.990
G01 F400 X37.045 Y37.990
G01 F400 X37.158 Y38.015
G01 F400 X37.263 Y38.062
G01 F400 X37.349 Y38.124
G01 F400 X37.895 Y38.670
G01 F400 X40.105 Y38.670
G01 F400 X40.651 Y38.124
G01 F400 X40.737 Y38.062
G01 F400 X40.842 Y38.015
G01 F400 X40.955 Y37.990
G01 F400 X51.675 Y37.990
G01 F400 X51.711 Y37.881
G01 F400 X51.858 Y37.626
G01 F400 X51.749 Y37.626
G01 F400 X51.415 Y37.555
G01 F400 X51.102 Y37.416
G01 F400 X50.826 Y37.215
G01 F400 X50.597 Y36.961
G01 F400 X50.426 Y36.665
G01 F400 X50.321 Y36.340
G01 F400 X50.285 Y36.000
G01 F400 X50.321 Y35.660
G01 F400 X50.426 Y35.335
G01 F400 X50.597 Y35.039
G01 F400 X50.826 Y34.785
G01 F400 X51.102 Y34.584
G01 F400 X51.415 Y34.445
G01 F400 X51.749 Y34.374
G01 F400 X52.091 Y34.374
G01 F400 X52.425 Y34.445
G01 F400 X52.738 Y34.584
G01 F400 X53.014 Y34.785
G01 F400 X53.243 Y35.039
G01 F400 X53.414 Y35.335
G01 F400 X53.520 Y35.660
G01 F400 X53.555 Y36.000
G01 F400 X53.520 Y36.340
G01 F400 X53.414 Y36.665
G01 F400 X53.261 Y36.930
G01 F400 X53.359 Y36.930
G01 F400 X53.690 Y37.000
G01 F400 X54.000 Y37.138
G01 F400 X54.274 Y37.337
G01 F400 X54.500 Y37.588
G01 F400 X54.669 Y37.881
G01 F400 X54.774 Y38.203
G01 F400 X54.809 Y38.540
G01 F400 X54.774 Y38.877
G01 F400 X54.669 Y39.199
G01 F400 X54.500 Y39.492
G01 F400 X54.274 Y39.743
G01 F400 X54.051 Y39.905
G01 F400 X54.051 Y42.950
G01 F400 X77.771 Y42.950
G01 F400 X78.151 Y42.571
G01 F400 X78.040 Y42.620
G01 F400 X77.709 Y42.691
G01 F400 X77.371 Y42.691
G01 F400 X77.040 Y42.620
G01 F400 X76.730 Y42.482
G01 F400 X76.456 Y42.283
G01 F400 X76.230 Y42.032
G01 F400 X76.061 Y41.739
G01 F400 X75.999 Y41.550
G01 F400 X70.442 Y41.550
G01 F400 X70.329 Y41.526
G01 F400 X70.224 Y41.479
G01 F400 X70.138 Y41.416
G01 F400 X66.112 Y37.390
G01 F400 X66.053 Y37.325
G01 F400 X65.995 Y37.225
G01 F400 X65.960 Y37.115
G01 F400 X65.949 Y37.018
G01 F400 X65.949 Y34.727
G01 F400 X56.065 Y24.843
G01 F400 X56.062 Y24.846
G01 F400 X55.851 Y24.939
G01 F400 X55.625 Y24.987
G01 F400 X55.395 Y24.987
G01 F400 X55.169 Y24.939
G01 F400 X54.958 Y24.846
G01 F400 X54.772 Y24.710
G01 F400 X54.617 Y24.539
G01 F400 X54.502 Y24.339
G01 F400 X54.431 Y24.119
G01 F400 X54.407 Y23.890
G01 F400 X54.431 Y23.661
G01 F400 X54.502 Y23.441
G01 F400 X54.617 Y23.242
G01 F400 X54.772 Y23.070
G01 F400 X54.958 Y22.934
G01 F400 X55.169 Y22.841
G01 F400 X55.395 Y22.793
G01 F400 X55.625 Y22.793
G01 F400 X55.851 Y22.841
G01 F400 X56.062 Y22.934
G01 F400 X56.248 Y23.070
G01 F400 X56.403 Y23.242
G01 F400 X56.518 Y23.441
G01 F400 X56.589 Y23.661
G01 F400 X56.607 Y23.829
G01 F400 X57.006 Y24.228
G01 F400 X56.971 Y24.119
G01 F400 X56.947 Y23.890
G01 F400 X56.971 Y23.661
G01 F400 X57.042 Y23.441
G01 F400 X57.157 Y23.242
G01 F400 X57.312 Y23.070
G01 F400 X57.498 Y22.934
G01 F400 X57.709 Y22.841
G01 F400 X57.935 Y22.793
G01 F400 X58.165 Y22.793
G01 F400 X58.391 Y22.841
G01 F400 X58.602 Y22.934
G01 F400 X58.788 Y23.070
G01 F400 X58.943 Y23.242
G01 F400 X59.058 Y23.441
G01 F400 X59.129 Y23.661
G01 F400 X59.153 Y23.890
G01 F400 X59.129 Y24.119
G01 F400 X59.058 Y24.339
G01 F400 X58.943 Y24.539
G01 F400 X58.788 Y24.710
G01 F400 X58.602 Y24.846
G01 F400 X58.391 Y24.939
G01 F400 X58.165 Y24.987
G01 F400 X57.935 Y24.987
G01 F400 X57.720 Y24.942
G01 F400 X66.888 Y34.110
G01 F400 X66.947 Y34.175
G01 F400 X66.949 Y34.179
G01 F400 X66.949 Y10.550
G01 F400 X56.442 Y10.550
G01 F400 X56.329 Y10.526
G01 F400 X56.224 Y10.479
G01 F400 X56.138 Y10.416
G01 F400 X52.928 Y7.207
G01 F400 X52.859 Y7.208
G01 F400 X52.629 Y7.159
G01 F400 X52.418 Y7.066
G01 F400 X52.232 Y6.930
G01 F400 X52.077 Y6.759
G01 F400 X51.962 Y6.559
G01 F400 X51.891 Y6.339
G01 F400 X51.867 Y6.110
G01 F400 X51.891 Y5.881
G01 F400 X51.962 Y5.661
G01 F400 X52.077 Y5.462
G01 F400 X52.232 Y5.290
G01 F400 X52.418 Y5.155
G01 F400 X52.629 Y5.061
G01 F400 X52.855 Y5.013
G01 F400 X53.085 Y5.013
G01 F400 X53.311 Y5.061
G01 F400 X53.522 Y5.155
G01 F400 X53.708 Y5.290
G01 F400 X53.863 Y5.462
G01 F400 X53.978 Y5.661
G01 F400 X54.049 Y5.881
G01 F400 X54.073 Y6.110
G01 F400 X54.049 Y6.339
G01 F400 X53.978 Y6.559
G01 F400 X53.932 Y6.638
G01 F400 X56.729 Y9.450
G01 F400 X67.558 Y9.450
G01 F400 X67.671 Y9.475
G01 F400 X67.776 Y9.521
G01 F400 X67.870 Y9.589
G01 F400 X67.947 Y9.675
G01 F400 X68.005 Y9.775
G01 F400 X68.041 Y9.885
G01 F400 X68.051 Y9.982
G01 F400 X68.051 Y36.272
G01 F400 X68.418 Y36.640
G01 F400 X68.321 Y36.340
G01 F400 X68.285 Y36.000
G01 F400 X68.321 Y35.660
G01 F400 X68.426 Y35.335
G01 F400 X68.597 Y35.039
G01 F400 X68.826 Y34.785
G01 F400 X69.102 Y34.584
G01 F400 X69.415 Y34.445
G01 F400 X69.749 Y34.374
G01 F400 X70.091 Y34.374
G01 F400 X70.425 Y34.445
G01 F400 X70.738 Y34.584
G01 F400 X71.014 Y34.785
G01 F400 X71.243 Y35.039
G01 F400 X71.414 Y35.335
G01 F400 X71.520 Y35.660
G01 F400 X71.555 Y36.000
G01 F400 X71.520 Y36.340
G01 F400 X71.414 Y36.665
G01 F400 X71.261 Y36.930
G01 F400 X71.359 Y36.930
G01 F400 X71.690 Y37.000
G01 F400 X72.000 Y37.138
G01 F400 X72.274 Y37.337
G01 F400 X72.500 Y37.588
G01 F400 X72.669 Y37.881
G01 F400 X72.774 Y38.203
G01 F400 X72.800 Y38.450
G01 F400 X73.558 Y38.450
G01 F400 X73.671 Y38.474
G01 F400 X73.776 Y38.522
G01 F400 X73.862 Y38.584
G01 F400 X74.229 Y38.950
G01 F400 X75.771 Y38.950
G01 F400 X76.138 Y38.584
G01 F400 X76.224 Y38.522
G01 F400 X76.329 Y38.474
G01 F400 X76.442 Y38.450
G01 F400 X79.558 Y38.450
G01 F400 X79.671 Y38.474
G01 F400 X79.776 Y38.522
G01 F400 X79.870 Y38.589
G01 F400 X79.947 Y38.675
G01 F400 X80.005 Y38.775
G01 F400 X80.041 Y38.885
G01 F400 X80.051 Y38.982
G01 F400 X80.051 Y42.018
G01 F400 X80.041 Y42.115
G01 F400 X80.008 Y42.213
G01 F400 X81.949 Y40.272
G01 F400 X81.949 Y35.728
G01 F400 X81.582 Y35.360
G01 F400 X81.680 Y35.660
G01 F400 X81.715 Y36.000
G01 F400 X81.680 Y36.340
G01 F400 X81.574 Y36.665
G01 F400 X81.403 Y36.961
G01 F400 X81.174 Y37.215
G01 F400 X80.898 Y37.416
G01 F400 X80.585 Y37.555
G01 F400 X80.251 Y37.626
G01 F400 X79.909 Y37.626
G01 F400 X79.575 Y37.555
G01 F400 X79.262 Y37.416
G01 F400 X78.986 Y37.215
G01 F400 X78.757 Y36.961
G01 F400 X78.586 Y36.665
G01 F400 X78.481 Y36.340
G01 F400 X78.445 Y36.000
G01 F400 X78.481 Y35.660
G01 F400 X78.586 Y35.335
G01 F400 X78.757 Y35.039
G01 F400 X78.986 Y34.785
G01 F400 X79.262 Y34.584
G01 F400 X79.575 Y34.445
G01 F400 X79.909 Y34.374
G01 F400 X80.251 Y34.374
G01 F400 X80.585 Y34.445
G01 F400 X80.732 Y34.510
G01 F400 X70.112 Y23.890
G01 F400 X70.053 Y23.825
G01 F400 X69.995 Y23.725
G01 F400 X69.960 Y23.615
G01 F400 X69.949 Y23.518
G01 F400 X69.949 Y4.050
G01 F400 X15.229 Y4.050
G01 F400 X13.551 Y5.728
G01 F400 X13.551 Y7.450
G01 F400 X27.058 Y7.450
G01 F400 X27.171 Y7.474
G01 F400 X27.276 Y7.522
G01 F400 X27.362 Y7.584
G01 F400 X42.593 Y22.814
G01 F400 X42.695 Y22.793
G01 F400 X42.925 Y22.793
G01 F400 X43.151 Y22.841
G01 F400 X43.362 Y22.934
G01 F400 X43.548 Y23.070
G01 F400 X43.703 Y23.242
G01 F400 X43.818 Y23.441
G01 F400 X43.889 Y23.661
G01 F400 X43.913 Y23.890
G01 F400 X43.889 Y24.119
G01 F400 X43.818 Y24.339
G01 F400 X43.703 Y24.539
G01 F400 X43.548 Y24.710
G01 F400 X43.362 Y24.846
G01 F400 X43.151 Y24.939
G01 F400 X42.925 Y24.987
G01 F400 X42.695 Y24.987
G01 F400 X42.469 Y24.939
G01 F400 X42.258 Y24.846
G01 F400 X42.072 Y24.710
G01 F400 X41.917 Y24.539
G01 F400 X41.802 Y24.339
G01 F400 X41.731 Y24.119
G01 F400 X41.707 Y23.890
G01 F400 X41.731 Y23.661
G01 F400 X41.768 Y23.546
G01 F400 X26.771 Y8.550
G01 F400 X12.942 Y8.550
G01 F400 X12.829 Y8.526
G01 F400 X12.724 Y8.479
G01 F400 X12.630 Y8.411
G01 F400 X12.553 Y8.325
G01 F400 X12.495 Y8.225
G01 F400 X12.460 Y8.115
G01 F400 X12.449 Y8.018
G01 F400 X12.449 Y5.482
G01 F400 X12.460 Y5.385
G01 F400 X12.495 Y5.275
G01 F400 X12.553 Y5.175
G01 F400 X12.612 Y5.110
G01 F400 X14.638 Y3.084
G01 F400 X14.724 Y3.022
G01 F400 X14.829 Y2.974
G01 F400 X14.942 Y2.950
G01 F400 X70.558 Y2.950
G01 F400 X70.671 Y2.974
G01 F400 X70.776 Y3.022
G01 F400 X70.870 Y3.089
G01 F400 X70.947 Y3.175
G01 F400 X71.005 Y3.275
G01 F400 X71.041 Y3.385
G01 F400 X71.051 Y3.482
G01 F400 X71.051 Y23.272
G01 F400 X82.888 Y35.110
G01 F400 X82.947 Y35.175
G01 F400 X83.005 Y35.275
G01 F400 X83.041 Y35.385
G01 F400 X83.051 Y35.482
G01 F400 X83.051 Y40.518
G01 F400 X83.041 Y40.615
G01 F400 X83.005 Y40.725
G01 F400 X82.947 Y40.825
G01 F400 X82.888 Y40.890
G01 F400 X78.862 Y44.916
G01 F400 X78.776 Y44.979
G01 F400 X78.671 Y45.026
G01 F400 X78.558 Y45.050
G01 F400 X41.942 Y45.050
G01 F400 X41.829 Y45.026
G01 F400 X41.724 Y44.979
G01 F400 X41.630 Y44.911
G01 F400 X41.553 Y44.825
G01 F400 X41.495 Y44.725
G01 F400 X41.459 Y44.615
G01 F400 X41.449 Y44.518
G01 F400 X41.449 Y42.691
G01 F400 X41.371 Y42.691
G01 F400 X41.040 Y42.620
G01 F400 X40.730 Y42.482
G01 F400 X40.456 Y42.283
G01 F400 X40.230 Y42.032
G01 F400 X40.061 Y41.739
G01 F400 X39.956 Y41.417
G01 F400 X39.921 Y41.080
G01 F400 X39.956 Y40.743
G01 F400 X40.061 Y40.421
G01 F400 X40.230 Y40.128
G01 F400 X40.456 Y39.877
G01 F400 X40.730 Y39.678
G01 F400 X41.040 Y39.540
G01 F400 X41.371 Y39.470
G01 F400 X41.709 Y39.470
G01 F400 X42.040 Y39.540
G01 F400 X42.350 Y39.678
G01 F400 X42.624 Y39.877
G01 F400 X42.850 Y40.128
G01 F400 X43.019 Y40.421
G01 F400 X43.124 Y40.743
G01 F400 X43.159 Y41.080
G01 F400 X43.124 Y41.417
G01 F400 X43.019 Y41.739
G01 F400 X42.850 Y42.032
G01 F400 X42.624 Y42.283
G01 F400 X42.551 Y42.336
G01 F400 X42.551 Y43.950
G01 F400 X53.185 Y43.950
G01 F400 X53.130 Y43.911
G01 F400 X53.053 Y43.825
G01 F400 X52.995 Y43.725
G01 F400 X52.960 Y43.615
G01 F400 X52.949 Y43.518
G01 F400 X52.949 Y40.135
G01 F400 X52.690 Y40.080
G01 F400 X52.380 Y39.942
G01 F400 X52.106 Y39.743
G01 F400 X51.880 Y39.492
G01 F400 X51.711 Y39.199
G01 F400 X51.675 Y39.090
G01 F400 X41.242 Y39.090
G01 F400 X40.696 Y39.636
G01 F400 X40.610 Y39.698
G01 F400 X40.504 Y39.745
G01 F400 X40.391 Y39.769
G01 F400 X37.609 Y39.769
G01 F400 X37.496 Y39.745
G01 F400 X37.390 Y39.698
G01 F400 X37.304 Y39.636
G01 F400 X36.758 Y39.090
G01 F400 X36.705 Y39.090
G01 F400 X36.669 Y39.199
G01 F400 X36.500 Y39.492
G01 F400 X36.274 Y39.743
G01 F400 X36.000 Y39.942
G01 F400 X35.690 Y40.080
G01 F400 X35.551 Y40.110
G01 F400 X35.551 Y43.518
G01 F400 X35.541 Y43.615
G01 F400 X35.505 Y43.725
G01 F400 X35.447 Y43.825
G01 F400 X35.370 Y43.911
G01 F400 X35.276 Y43.979
G01 F400 X35.171 Y44.026
G01 F400 X35.058 Y44.050
G01 F400 X32.051 Y44.050
G01 F400 X32.051 Y55.950
G01 F400 X33.689 Y55.950
G01 F400 X33.709 Y55.884
G01 F400 X33.858 Y55.626
G01 F400 X33.749 Y55.626
G01 F400 X33.415 Y55.555
G01 F400 X33.102 Y55.416
G01 F400 X32.826 Y55.215
G01 F400 X32.597 Y54.961
G01 F400 X32.426 Y54.665
G01 F400 X32.321 Y54.340
G01 F400 X32.285 Y54.000
G01 F400 X32.321 Y53.660
G01 F400 X32.426 Y53.335
G01 F400 X32.597 Y53.039
G01 F400 X32.826 Y52.785
G01 F400 X33.102 Y52.584
G01 F400 X33.415 Y52.445
G01 F400 X33.749 Y52.374
G01 F400 X34.091 Y52.374
G01 F400 X34.425 Y52.445
G01 F400 X34.738 Y52.584
G01 F400 X35.014 Y52.785
G01 F400 X35.243 Y53.039
G01 F400 X35.414 Y53.335
G01 F400 X35.520 Y53.660
G01 F400 X35.555 Y54.000
G01 F400 X35.520 Y54.340
G01 F400 X35.414 Y54.665
G01 F400 X35.261 Y54.930
G01 F400 X35.359 Y54.930
G01 F400 X35.690 Y55.000
G01 F400 X36.000 Y55.138
G01 F400 X36.274 Y55.337
G01 F400 X36.500 Y55.588
G01 F400 X36.669 Y55.881
G01 F400 X36.774 Y56.203
G01 F400 X36.809 Y56.540
G01 F400 X36.774 Y56.877
G01 F400 X36.753 Y56.941
G01 F400 X39.772 Y56.950
G01 F400 X40.138 Y56.584
G01 F400 X40.224 Y56.522
G01 F400 X40.329 Y56.475
G01 F400 X40.442 Y56.450
G01 F400 X51.580 Y56.450
G01 F400 X51.606 Y56.203
G01 F400 X51.711 Y55.881
G01 F400 X51.858 Y55.626
G01 F400 X51.749 Y55.626
G01 F400 X51.415 Y55.555
G01 F400 X51.102 Y55.416
G01 F400 X50.826 Y55.215
G01 F400 X50.597 Y54.961
G01 F400 X50.426 Y54.665
G01 F400 X50.321 Y54.340
G01 F400 X50.285 Y54.000
G01 F400 X50.321 Y53.660
G01 F400 X50.426 Y53.335
G01 F400 X50.597 Y53.039
G01 F400 X50.826 Y52.785
G01 F400 X51.102 Y52.584
G01 F400 X51.415 Y52.445
G01 F400 X51.749 Y52.374
G01 F400 X52.091 Y52.374
G01 F400 X52.425 Y52.445
G01 F400 X52.738 Y52.584
G01 F400 X53.014 Y52.785
G01 F400 X53.243 Y53.039
G01 F400 X53.414 Y53.335
G01 F400 X53.520 Y53.660
G01 F400 X53.555 Y54.000
G01 F400 X53.520 Y54.340
G01 F400 X53.414 Y54.665
G01 F400 X53.261 Y54.930
G01 F400 X53.359 Y54.930
G01 F400 X53.690 Y55.000
G01 F400 X54.000 Y55.138
G01 F400 X54.274 Y55.337
G01 F400 X54.500 Y55.588
G01 F400 X54.669 Y55.881
G01 F400 X54.774 Y56.203
G01 F400 X54.809 Y56.540
G01 F400 X54.774 Y56.877
G01 F400 X54.753 Y56.941
G01 F400 X57.772 Y56.950
G01 F400 X58.138 Y56.584
G01 F400 X58.224 Y56.522
G01 F400 X58.329 Y56.475
G01 F400 X58.442 Y56.450
G01 F400 X69.580 Y56.450
G01 F400 X69.606 Y56.203
G01 F400 X69.711 Y55.881
G01 F400 X69.858 Y55.626
G01 F400 X69.749 Y55.626
G01 F400 X69.415 Y55.555
G01 F400 X69.102 Y55.416
G01 F400 X68.826 Y55.215
G01 F400 X68.597 Y54.961
G01 F400 X68.426 Y54.665
G01 F400 X68.321 Y54.340
G01 F400 X68.285 Y54.000
G01 F400 X68.321 Y53.660
G01 F400 X68.426 Y53.335
G01 F400 X68.597 Y53.039
G01 F400 X68.826 Y52.785
G01 F400 X69.102 Y52.584
G01 F400 X69.415 Y52.445
G01 F400 X69.749 Y52.374
G01 F400 X70.091 Y52.374
G01 F400 X70.425 Y52.445
G01 F400 X70.738 Y52.584
G01 F400 X71.014 Y52.785
G01 F400 X71.243 Y53.039
G01 F400 X71.414 Y53.335
G01 F400 X71.520 Y53.660
G01 F400 X71.555 Y54.000
G01 F400 X71.520 Y54.340
G01 F400 X71.414 Y54.665
G01 F400 X71.261 Y54.930
G01 F400 X71.359 Y54.930
G01 F400 X71.690 Y55.000
G01 F400 X72.000 Y55.138
G01 F400 X72.274 Y55.337
G01 F400 X72.500 Y55.588
G01 F400 X72.669 Y55.881
G01 F400 X72.774 Y56.203
G01 F400 X72.809 Y56.540
G01 F400 X72.774 Y56.877
G01 F400 X72.669 Y57.199
G01 F400 X72.500 Y57.492
G01 F400 X72.274 Y57.743
G01 F400 X72.000 Y57.942
G01 F400 X71.690 Y58.080
G01 F400 X71.359 Y58.151
G01 F400 X71.021 Y58.151
G01 F400 X70.690 Y58.080
G01 F400 X70.380 Y57.942
G01 F400 X70.106 Y57.743
G01 F400 X69.932 Y57.550
G01 F400 X60.062 Y57.550
G01 F400 X60.350 Y57.678
G01 F400 X60.624 Y57.877
G01 F400 X60.850 Y58.128
G01 F400 X61.019 Y58.421
G01 F400 X61.124 Y58.743
G01 F400 X61.159 Y59.080
G01 F400 X61.124 Y59.417
G01 F400 X61.019 Y59.739
G01 F400 X60.850 Y60.032
G01 F400 X60.624 Y60.283
G01 F400 X60.350 Y60.482
G01 F400 X60.051 Y60.616
G01 F400 X60.051 Y62.518
G01 F400 X60.041 Y62.615
G01 F400 X60.005 Y62.725
G01 F400 X59.947 Y62.825
G01 F400 X59.870 Y62.911
G01 F400 X59.815 Y62.950
G01 F400 X76.949 Y62.950
G01 F400 X76.949 Y60.580
G01 F400 X76.730 Y60.482
G01 F400 X76.456 Y60.283
G01 F400 X76.230 Y60.032
G01 F400 X76.061 Y59.739
G01 F400 X75.956 Y59.417
G01 F400 X75.921 Y59.080
G01 F400 X75.956 Y58.743
G01 F400 X76.061 Y58.421
G01 F400 X76.230 Y58.128
G01 F400 X76.456 Y57.877
G01 F400 X76.730 Y57.678
G01 F400 X77.040 Y57.540
G01 F400 X77.371 Y57.470
G01 F400 X77.709 Y57.470
G01 F400 X78.040 Y57.540
G01 F400 X78.350 Y57.678
G01 F400 X78.624 Y57.877
G01 F400 X78.850 Y58.128
G01 F400 X79.019 Y58.421
G01 F400 X79.124 Y58.743
G01 F400 X79.159 Y59.080
G01 F400 X79.124 Y59.417
G01 F400 X79.019 Y59.739
G01 F400 X78.850 Y60.032
G01 F400 X78.624 Y60.283
G01 F400 X78.350 Y60.482
G01 F400 X78.051 Y60.616
G01 F400 X78.051 Y63.518
G01 F400 X78.041 Y63.615
G01 F400 X78.005 Y63.725
G01 F400 X77.947 Y63.825
G01 F400 X77.870 Y63.911
G01 F400 X77.776 Y63.979
G01 F400 X77.671 Y64.026
G01 F400 X77.558 Y64.050
G01 F400 X16.442 Y64.050
G00 Z3.000
G00  X41.815 Y61.950
G01 F750 Z0
G01 F400 Z-0.100
G01 F400 X58.949 Y61.950
G01 F400 X58.949 Y60.580
G01 F400 X58.730 Y60.482
G01 F400 X58.456 Y60.283
G01 F400 X58.230 Y60.032
G01 F400 X58.061 Y59.739
G01 F400 X57.956 Y59.417
G01 F400 X57.921 Y59.080
G01 F400 X57.956 Y58.743
G01 F400 X58.061 Y58.421
G01 F400 X58.230 Y58.128
G01 F400 X58.456 Y57.877
G01 F400 X58.730 Y57.678
G01 F400 X59.018 Y57.550
G01 F400 X58.729 Y57.550
G01 F400 X58.362 Y57.916
G01 F400 X58.276 Y57.979
G01 F400 X58.171 Y58.026
G01 F400 X58.058 Y58.050
G01 F400 X53.759 Y58.050
G01 F400 X53.690 Y58.080
G01 F400 X53.359 Y58.151
G01 F400 X53.021 Y58.151
G01 F400 X52.690 Y58.080
G01 F400 X52.380 Y57.942
G01 F400 X52.106 Y57.743
G01 F400 X51.932 Y57.550
G01 F400 X42.062 Y57.550
G01 F400 X42.350 Y57.678
G01 F400 X42.624 Y57.877
G01 F400 X42.850 Y58.128
G01 F400 X43.019 Y58.421
G01 F400 X43.124 Y58.743
G01 F400 X43.159 Y59.080
G01 F400 X43.124 Y59.417
G01 F400 X43.019 Y59.739
G01 F400 X42.850 Y60.032
G01 F400 X42.624 Y60.283
G01 F400 X42.350 Y60.482
G01 F400 X42.051 Y60.616
G01 F400 X42.051 Y61.518
G01 F400 X42.041 Y61.615
G01 F400 X42.005 Y61.725
G01 F400 X41.947 Y61.825
G01 F400 X41.870 Y61.911
G01 F400 X41.815 Y61.950
G00 Z3.000
G00  X17.729 Y60.950
G01 F750 Z0
G01 F400 Z-0.100
G01 F400 X40.949 Y60.950
G01 F400 X40.949 Y60.580
G01 F400 X40.730 Y60.482
G01 F400 X40.456 Y60.283
G01 F400 X40.230 Y60.032
G01 F400 X40.061 Y59.739
G01 F400 X39.956 Y59.417
G01 F400 X39.921 Y59.080
G01 F400 X39.956 Y58.743
G01 F400 X40.061 Y58.421
G01 F400 X40.230 Y58.128
G01 F400 X40.456 Y57.877
G01 F400 X40.730 Y57.678
G01 F400 X41.018 Y57.550
G01 F400 X40.729 Y57.550
G01 F400 X40.362 Y57.916
G01 F400 X40.276 Y57.979
G01 F400 X40.171 Y58.026
G01 F400 X40.058 Y58.050
G01 F400 X35.759 Y58.050
G01 F400 X35.690 Y58.080
G01 F400 X35.359 Y58.151
G01 F400 X35.021 Y58.151
G01 F400 X34.690 Y58.080
G01 F400 X34.380 Y57.942
G01 F400 X34.106 Y57.743
G01 F400 X33.880 Y57.492
G01 F400 X33.711 Y57.199
G01 F400 X33.662 Y57.050
G01 F400 X31.442 Y57.050
G01 F400 X31.329 Y57.026
G01 F400 X31.224 Y56.979
G01 F400 X31.130 Y56.911
G01 F400 X31.053 Y56.825
G01 F400 X30.995 Y56.725
G01 F400 X30.960 Y56.615
G01 F400 X30.949 Y56.518
G01 F400 X30.949 Y44.050
G01 F400 X22.229 Y44.050
G01 F400 X14.051 Y52.227
G01 F400 X14.051 Y54.272
G01 F400 X14.418 Y54.640
G01 F400 X14.321 Y54.340
G01 F400 X14.285 Y54.000
G01 F400 X14.321 Y53.660
G01 F400 X14.426 Y53.335
G01 F400 X14.597 Y53.039
G01 F400 X14.826 Y52.785
G01 F400 X15.102 Y52.584
G01 F400 X15.415 Y52.445
G01 F400 X15.749 Y52.374
G01 F400 X16.091 Y52.374
G01 F400 X16.425 Y52.445
G01 F400 X16.738 Y52.584
G01 F400 X17.014 Y52.785
G01 F400 X17.243 Y53.039
G01 F400 X17.414 Y53.335
G01 F400 X17.520 Y53.660
G01 F400 X17.555 Y54.000
G01 F400 X17.520 Y54.340
G01 F400 X17.414 Y54.665
G01 F400 X17.261 Y54.930
G01 F400 X17.359 Y54.930
G01 F400 X17.690 Y55.000
G01 F400 X18.000 Y55.138
G01 F400 X18.274 Y55.337
G01 F400 X18.500 Y55.588
G01 F400 X18.669 Y55.881
G01 F400 X18.774 Y56.203
G01 F400 X18.809 Y56.540
G01 F400 X18.774 Y56.877
G01 F400 X18.669 Y57.199
G01 F400 X18.500 Y57.492
G01 F400 X18.274 Y57.743
G01 F400 X18.000 Y57.942
G01 F400 X17.690 Y58.080
G01 F400 X17.359 Y58.151
G01 F400 X17.021 Y58.151
G01 F400 X16.690 Y58.080
G01 F400 X16.380 Y57.942
G01 F400 X16.106 Y57.743
G01 F400 X15.880 Y57.492
G01 F400 X15.711 Y57.199
G01 F400 X15.662 Y57.050
G01 F400 X15.442 Y57.050
G01 F400 X15.329 Y57.026
G01 F400 X15.284 Y57.005
G01 F400 X16.729 Y58.450
G01 F400 X22.051 Y58.450
G01 F400 X22.061 Y58.421
G01 F400 X22.230 Y58.128
G01 F400 X22.456 Y57.877
G01 F400 X22.730 Y57.678
G01 F400 X23.040 Y57.540
G01 F400 X23.371 Y57.470
G01 F400 X23.709 Y57.470
G01 F400 X24.040 Y57.540
G01 F400 X24.350 Y57.678
G01 F400 X24.624 Y57.877
G01 F400 X24.850 Y58.128
G01 F400 X25.019 Y58.421
G01 F400 X25.124 Y58.743
G01 F400 X25.159 Y59.080
G01 F400 X25.124 Y59.417
G01 F400 X25.019 Y59.739
G01 F400 X24.850 Y60.032
G01 F400 X24.624 Y60.283
G01 F400 X24.350 Y60.482
G01 F400 X24.040 Y60.620
G01 F400 X23.709 Y60.691
G01 F400 X23.371 Y60.691
G01 F400 X23.040 Y60.620
G01 F400 X22.730 Y60.482
G01 F400 X22.456 Y60.283
G01 F400 X22.230 Y60.032
G01 F400 X22.061 Y59.739
G01 F400 X21.999 Y59.550
G01 F400 X16.442 Y59.550
G01 F400 X16.329 Y59.526
G01 F400 X16.283 Y59.505
G01 F400 X17.729 Y60.950
G00 Z3.000
G00  X15.698 Y55.920
G01 F750 Z0
G01 F400 Z-0.100
G01 F400 X15.709 Y55.884
G01 F400 X15.858 Y55.626
G01 F400 X15.749 Y55.626
G01 F400 X15.415 Y55.555
G01 F400 X15.268 Y55.490
G01 F400 X15.698 Y55.920
G00 Z3.000
G00  X61.909 Y55.626
G01 F750 Z0
G01 F400 Z-0.100
G01 F400 X61.575 Y55.555
G01 F400 X61.262 Y55.416
G01 F400 X60.986 Y55.215
G01 F400 X60.757 Y54.961
G01 F400 X60.586 Y54.665
G01 F400 X60.481 Y54.340
G01 F400 X60.445 Y54.000
G01 F400 X60.481 Y53.660
G01 F400 X60.586 Y53.335
G01 F400 X60.757 Y53.039
G01 F400 X60.986 Y52.785
G01 F400 X61.262 Y52.584
G01 F400 X61.575 Y52.445
G01 F400 X61.909 Y52.374
G01 F400 X62.251 Y52.374
G01 F400 X62.585 Y52.445
G01 F400 X62.898 Y52.584
G01 F400 X63.174 Y52.785
G01 F400 X63.403 Y53.039
G01 F400 X63.574 Y53.335
G01 F400 X63.680 Y53.660
G01 F400 X63.715 Y54.000
G01 F400 X63.680 Y54.340
G01 F400 X63.574 Y54.665
G01 F400 X63.403 Y54.961
G01 F400 X63.174 Y55.215
G01 F400 X62.898 Y55.416
G01 F400 X62.585 Y55.555
G01 F400 X62.251 Y55.626
G01 F400 X61.909 Y55.626
G00 Z3.000
G00  X79.909 Y55.626
G01 F750 Z0
G01 F400 Z-0.100
G01 F400 X79.575 Y55.555
G01 F400 X79.262 Y55.416
G01 F400 X78.986 Y55.215
G01 F400 X78.757 Y54.961
G01 F400 X78.586 Y54.665
G01 F400 X78.481 Y54.340
G01 F400 X78.445 Y54.000
