( PCB drills )
( Generated by Carbide Copper )
( Material Size )
( X= 152.400, Y= 101.600, Z= 1.580 )
()
G17
G21
G54
G90
T1 M06
G00  X75.000 Y36.000
G00 F750 Z0
G01 F15000 Z-1.780
G00 Z3.000
G00  X57.000 Y36.000
G00 F750 Z0
G01 F15000 Z-1.780
G00 Z3.000
G00  X21.000 Y36.000
G00 F750 Z0
G01 F15000 Z-1.780
G00 Z3.000
G00  X39.000 Y36.000
G00 F750 Z0
G01 F15000 Z-1.780
G00 Z3.000
G00  X75.000 Y54.000
G00 F750 Z0
G01 F15000 Z-1.780
G00 Z3.000
G00  X57.000 Y54.000
G00 F750 Z0
G01 F15000 Z-1.780
G00 Z3.000
G00  X39.000 Y54.000
G00 F750 Z0
G01 F15000 Z-1.780
G00 Z3.000
G00  X21.000 Y54.000
G00 F750 Z0
G01 F15000 Z-1.780
G00 Z3.000
T2 M06
G00  X63.000 Y17.725
G00 F750 Z0
G01 F15000 Z-1.780
G00 Z3.000
G00  X63.000 Y12.275
G00 F750 Z0
G01 F15000 Z-1.780
G00 Z3.000
T3 M06
G00  X15.920 Y54.000
G00 F750 Z0
G01 F15000 Z-1.780
G00 Z3.000
G00  X44.080 Y54.000
G00 F750 Z0
G01 F15000 Z-1.780
G00 Z3.000
G00  X26.080 Y54.000
G00 F750 Z0
G01 F15000 Z-1.780
G00 Z3.000
G00  X33.920 Y54.000
G00 F750 Z0
G01 F15000 Z-1.780
G00 Z3.000
G00  X62.080 Y54.000
G00 F750 Z0
G01 F15000 Z-1.780
G00 Z3.000
G00  X51.920 Y54.000
G00 F750 Z0
G01 F15000 Z-1.780
G00 Z3.000
G00  X80.080 Y54.000
G00 F750 Z0
G01 F15000 Z-1.780
G00 Z3.000
G00  X69.920 Y36.000
G00 F750 Z0
G01 F15000 Z-1.780
G00 Z3.000
G00  X80.080 Y36.000
G00 F750 Z0
G01 F15000 Z-1.780
G00 Z3.000
G00  X69.920 Y54.000
G00 F750 Z0
G01 F15000 Z-1.780
G00 Z3.000
G00  X44.080 Y36.000
G00 F750 Z0
G01 F15000 Z-1.780
G00 Z3.000
G00  X51.920 Y36.000
G00 F750 Z0
G01 F15000 Z-1.780
G00 Z3.000
G00  X62.080 Y36.000
G00 F750 Z0
G01 F15000 Z-1.780
G00 Z3.000
G00  X33.920 Y36.000
G00 F750 Z0
G01 F15000 Z-1.780
G00 Z3.000
G00  X26.080 Y36.000
G00 F750 Z0
G01 F15000 Z-1.780
G00 Z3.000
G00  X15.920 Y36.000
G00 F750 Z0
G01 F15000 Z-1.780
G00 Z3.000
T4 M06
G00  X23.540 Y41.080
G00 F750 Z0
G01 F15000 Z-1.780
G00 Z3.000
G00  X35.190 Y38.540
G00 F750 Z0
G01 F15000 Z-1.780
G00 Z3.000
G00  X41.540 Y41.080
G00 F750 Z0
G01 F15000 Z-1.780
G00 Z3.000
G00  X17.190 Y38.540
G00 F750 Z0
G01 F15000 Z-1.780
G00 Z3.000
G00  X59.540 Y41.080
G00 F750 Z0
G01 F15000 Z-1.780
G00 Z3.000
G00  X71.190 Y56.540
G00 F750 Z0
G01 F15000 Z-1.780
G00 Z3.000
G00  X77.540 Y59.080
G00 F750 Z0
G01 F15000 Z-1.780
G00 Z3.000
G00  X53.190 Y38.540
G00 F750 Z0
G01 F15000 Z-1.780
G00 Z3.000
G00  X77.540 Y41.080
G00 F750 Z0
G01 F15000 Z-1.780
G00 Z3.000
G00  X53.190 Y56.540
G00 F750 Z0
G01 F15000 Z-1.780
G00 Z3.000
G00  X59.540 Y59.080
G00 F750 Z0
G01 F15000 Z-1.780
G00 Z3.000
G00  X71.190 Y38.540
G00 F750 Z0
G01 F15000 Z-1.780
G00 Z3.000
G00  X23.540 Y59.080
G00 F750 Z0
G01 F15000 Z-1.780
G00 Z3.000
G00  X35.190 Y56.540
G00 F750 Z0
G01 F15000 Z-1.780
G00 Z3.000
G00  X41.540 Y59.080
G00 F750 Z0
G01 F15000 Z-1.780
G00 Z3.000
G00  X59.970 Y17.425
G00 F750 Z0
G01 F15000 Z-1.780
G00 Z3.000
G00  X59.970 Y12.575
G00 F750 Z0
G01 F15000 Z-1.780
G00 Z3.000
G00  X17.190 Y56.540
G00 F750 Z0
G01 F15000 Z-1.780
G00 Z3.000
T5 M06
G00  X45.350 Y23.890
G00 F750 Z0
G01 F15000 Z-1.780
G00 Z3.000
G00  X14.870 Y6.110
G00 F750 Z0
G01 F15000 Z-1.780
G00 Z3.000
G00  X15.100 Y15.000
G00 F750 Z0
G01 F15000 Z-1.780
G00 Z3.000
G00  X63.130 Y23.890
G00 F750 Z0
G01 F15000 Z-1.780
G00 Z3.000
G00  X60.590 Y23.890
G00 F750 Z0
G01 F15000 Z-1.780
G00 Z3.000
G00  X47.890 Y23.890
G00 F750 Z0
G01 F15000 Z-1.780
G00 Z3.000
G00  X15.100 Y17.540
G00 F750 Z0
G01 F15000 Z-1.780
G00 Z3.000
G00  X58.050 Y23.890
G00 F750 Z0
G01 F15000 Z-1.780
G00 Z3.000
G00  X55.510 Y23.890
G00 F750 Z0
G01 F15000 Z-1.780
G00 Z3.000
G00  X50.430 Y23.890
G00 F750 Z0
G01 F15000 Z-1.780
G00 Z3.000
G00  X52.970 Y23.890
G00 F750 Z0
G01 F15000 Z-1.780
G00 Z3.000
G00  X42.810 Y23.890
G00 F750 Z0
G01 F15000 Z-1.780
G00 Z3.000
G00  X40.270 Y23.890
G00 F750 Z0
G01 F15000 Z-1.780
G00 Z3.000
G00  X37.730 Y23.890
G00 F750 Z0
G01 F15000 Z-1.780
G00 Z3.000
G00  X35.190 Y23.890
G00 F750 Z0
G01 F15000 Z-1.780
G00 Z3.000
G00  X32.650 Y23.890
G00 F750 Z0
G01 F15000 Z-1.780
G00 Z3.000
G00  X30.110 Y23.890
G00 F750 Z0
G01 F15000 Z-1.780
G00 Z3.000
G00  X27.570 Y23.890
G00 F750 Z0
G01 F15000 Z-1.780
G00 Z3.000
G00  X25.030 Y23.890
G00 F750 Z0
G01 F15000 Z-1.780
G00 Z3.000
G00  X22.490 Y23.890
G00 F750 Z0
G01 F15000 Z-1.780
G00 Z3.000
G00  X19.950 Y23.890
G00 F750 Z0
G01 F15000 Z-1.780
G00 Z3.000
G00  X17.410 Y23.890
G00 F750 Z0
G01 F15000 Z-1.780
G00 Z3.000
G00  X14.870 Y23.890
G00 F750 Z0
G01 F15000 Z-1.780
G00 Z3.000
G00  X15.100 Y12.460
G00 F750 Z0
G01 F15000 Z-1.780
G00 Z3.000
G00  X17.410 Y6.110
G00 F750 Z0
G01 F15000 Z-1.780
G00 Z3.000
G00  X19.950 Y6.110
G00 F750 Z0
G01 F15000 Z-1.780
G00 Z3.000
G00  X22.490 Y6.110
G00 F750 Z0
G01 F15000 Z-1.780
G00 Z3.000
G00  X25.030 Y6.110
G00 F750 Z0
G01 F15000 Z-1.780
G00 Z3.000
G00  X27.570 Y6.110
G00 F750 Z0
G01 F15000 Z-1.780
G00 Z3.000
G00  X30.110 Y6.110
G00 F750 Z0
G01 F15000 Z-1.780
G00 Z3.000
G00  X32.650 Y6.110
G00 F750 Z0
G01 F15000 Z-1.780
G00 Z3.000
G00  X35.190 Y6.110
G00 F750 Z0
G01 F15000 Z-1.780
G00 Z3.000
G00  X37.730 Y6.110
G00 F750 Z0
G01 F15000 Z-1.780
G00 Z3.000
G00  X40.270 Y6.110
G00 F750 Z0
G01 F15000 Z-1.780
G00 Z3.000
G00  X42.810 Y6.110
G00 F750 Z0
G01 F15000 Z-1.780
G00 Z3.000
G00  X45.350 Y6.110
G00 F750 Z0
G01 F15000 Z-1.780
G00 Z3.000
G00  X47.890 Y6.110
G00 F750 Z0
G01 F15000 Z-1.780
G00 Z3.000
G00  X50.430 Y6.110
G00 F750 Z0
G01 F15000 Z-1.780
G00 Z3.000
G00  X52.970 Y6.110
G00 F750 Z0
G01 F15000 Z-1.780
G00 Z3.000
G00  X55.510 Y6.110
G00 F750 Z0
G01 F15000 Z-1.780
G00 Z3.000
G00  X58.050 Y6.110
G00 F750 Z0
G01 F15000 Z-1.780
G00 Z3.000
G00  X60.590 Y6.110
G00 F750 Z0
G01 F15000 Z-1.780
G00 Z3.000
G00  X63.130 Y6.110
G00 F750 Z0
G01 F15000 Z-1.780
G00 Z3.000
T6 M06
G00  X75.000 Y9.000
G00 F750 Z0
G01 F15000 Z-1.780
G00 Z3.000
G00  X6.000 Y9.000
G00 F750 Z0
G01 F15000 Z-1.780
G00 Z3.000
G00  X87.000 Y57.000
G00 F750 Z0
G01 F15000 Z-1.780
G00 Z3.000
G00 Z3.000
M05
M30
%