( PCB Cuts )
( Generated by Carbide Copper )
( Material Size )
( X= 152.400, Y= 101.600, Z= 1.580 )
()
G17
G21
G54
G90
G00  X14.903 Y66.920
G01 F750 Z0
G01 F200 Z-1.580
G01 F200 X14.714 Y66.880
G01 F200 X14.538 Y66.801
G01 F200 X14.398 Y66.700
G01 F200 X5.339 Y57.641
G01 F200 X5.252 Y57.544
G01 F200 X5.155 Y57.376
G01 F200 X5.095 Y57.192
G01 F200 X5.080 Y57.042
G01 F200 X5.080 Y18.381
G01 F200 X-0.661 Y12.641
G01 F200 X-0.748 Y12.544
G01 F200 X-0.845 Y12.376
G01 F200 X-0.905 Y12.192
G01 F200 X-0.921 Y12.042
G01 F200 X-0.921 Y5.958
G01 F200 X-0.905 Y5.808
G01 F200 X-0.845 Y5.624
G01 F200 X-0.748 Y5.456
G01 F200 X-0.661 Y5.359
G01 F200 X5.398 Y-0.700
G01 F200 X5.538 Y-0.801
G01 F200 X5.714 Y-0.880
G01 F200 X5.903 Y-0.920
G01 F200 X75.097 Y-0.920
G01 F200 X75.286 Y-0.880
G01 F200 X75.462 Y-0.801
G01 F200 X75.602 Y-0.700
G01 F200 X81.661 Y5.360
G01 F200 X81.749 Y5.457
G01 F200 X81.845 Y5.624
G01 F200 X81.905 Y5.808
G01 F200 X81.921 Y5.958
G01 F200 X81.921 Y12.042
G01 F200 X81.905 Y12.192
G01 F200 X81.845 Y12.376
G01 F200 X81.748 Y12.544
G01 F200 X81.661 Y12.641
G01 F200 X75.921 Y18.381
G01 F200 X75.921 Y23.080
G01 F200 X81.097 Y23.080
G01 F200 X81.286 Y23.120
G01 F200 X81.462 Y23.199
G01 F200 X81.602 Y23.300
G01 F200 X87.661 Y29.360
G01 F200 X87.749 Y29.457
G01 F200 X87.845 Y29.624
G01 F200 X87.905 Y29.808
G01 F200 X87.921 Y29.958
G01 F200 X87.921 Y47.619
G01 F200 X93.661 Y53.360
G01 F200 X93.749 Y53.457
G01 F200 X93.845 Y53.624
G01 F200 X93.905 Y53.808
G01 F200 X93.921 Y53.958
G01 F200 X93.921 Y60.042
G01 F200 X93.905 Y60.192
G01 F200 X93.845 Y60.376
G01 F200 X93.748 Y60.544
G01 F200 X93.661 Y60.641
G01 F200 X87.602 Y66.700
G01 F200 X87.462 Y66.801
G01 F200 X87.286 Y66.880
G01 F200 X87.097 Y66.920
G01 F200 X14.903 Y66.920
G00 Z3.000
G00 Z3.000
M05
M30
%